; generated by PrusaSlicer 2.9.2 on 2025-05-08 at 10:42:26 UTC

; 

; external perimeters extrusion width = 0.45mm
; perimeters extrusion width = 0.45mm
; infill extrusion width = 0.45mm
; solid infill extrusion width = 0.45mm
; top infill extrusion width = 0.40mm
; first layer extrusion width = 0.42mm

; external perimeters extrusion width = 0.45mm
; perimeters extrusion width = 0.45mm
; infill extrusion width = 0.45mm
; solid infill extrusion width = 0.45mm
; top infill extrusion width = 0.40mm
; first layer extrusion width = 0.42mm

G10 S200 P0 ; set temperature
G10 S215 P1 ; set temperature
;TYPE:Custom
G10 S200 P0 ; set temperature
M116 ; wait for temperature to be reached
G10 S215 P1 ; set temperature
M116 ; wait for temperature to be reached
G21 ; set units to millimeters
G90 ; use absolute coordinates
M82 ; use absolute distances for extrusion
G92 E0
T0
G92 E0
; Filament gcode
M107
;LAYER_CHANGE
;Z:0.35
;HEIGHT:0.35
G92 E0
G1 E-2 F2400
G92 E0
G1 Z.35 F7800
G1 X5.834 Y.309
G1 E2 F2400
;TYPE:Skirt/Brim
;WIDTH:0.42
G1 F642
G1 X5.928 Y-1.475 E2.08966
G1 X6.688 Y-4.741 E2.25795
G1 X7.567 Y-6.772 E2.36901
G1 X9.107 Y-8.362 E2.4801
G1 X12.041 Y-9.48 E2.63767
G1 X12.784 Y-9.56 E2.67517
G1 X15.767 Y-9.141 E2.82634
G1 X17.885 Y-7.852 E2.95077
G1 X19.214 Y-6.082 E3.06185
G1 X19.833 Y-3.957 E3.17293
G1 X19.663 Y-1.75 E3.28402
G1 X19.124 Y-.387 E3.35758
G1 X17.371 Y2.857 E3.54263
G1 X15.987 Y4.584 E3.6537
G1 X14.083 Y5.712 E3.76476
G1 X11.903 Y6.096 E3.87585
G1 X9.728 Y5.686 E3.98693
G1 X7.838 Y4.535 E4.09799
G1 X6.475 Y2.791 E4.20907
G1 X5.814 Y.679 E4.32013
G1 X5.831 Y.369 E4.33571
G1 E2.33571 F2400
G92 E0
G1 X12.262 Y-1.069 F7800
G1 E2 F2400
G92 E0
;TYPE:External perimeter
;WIDTH:0.415111
G1 F642
G1 X12.583 Y-2.061 E.05158
G1 X12.46 Y-1.681 F7800
G1 X12.593 Y-2.087
;WIDTH:0.412119
G1 F642
G1 X12.832 Y-2.986 E.0972
;WIDTH:0.372354
G1 X13.33 Y-3.17 E.12016
G1 X13.055 Y-2.781 E.14077
;WIDTH:0.412119
G1 X12.626 Y-2.137 E.17872
G1 X12.707 Y-2.529 F7800
;LAYER_CHANGE
;Z:0.65
;HEIGHT:0.3
G1 E-1.82128 F2400
G92 E0
G1 Z.65 F7800
G1 X11.515 Y.449
G1 E2 F2400
;TYPE:Overhang perimeter
;WIDTH:0.4
;HEIGHT:0.4
G1 F900
G1 X10.699 Y2.97 E2.13844
G1 X10.822 Y2.589 F7800
G1 E.13844 F2400
G92 E0
G1 X13.303 Y-4.069 F7800
G1 E2 F2400
G1 F900
G1 X13.251 Y-4.069 E2.00272
G1 X13.226 Y-4.024 E2.00541
G1 X13.251 Y-3.979 E2.0081
G1 X13.303 Y-3.979 E2.01082
G1 X13.329 Y-4.024 E2.01354
G1 X12.472 Y-2.324 F7800
;TYPE:Perimeter
;WIDTH:0.45
;HEIGHT:0.3
G1 F600
G1 X12.757 Y-3.549 E2.07403
;TYPE:Overhang perimeter
;WIDTH:0.4
;HEIGHT:0.4
G1 F900
G1 X12.953 Y-4.392 E2.11925
G1 X13.074 Y-4.373 E2.12565
G1 X13.434 Y-4.513 E2.14583
G1 X13.561 Y-4.464 E2.15294
G1 X14.008 Y-4.289 E2.17802
G1 X13.481 Y-3.641 E2.22166
;TYPE:Perimeter
;WIDTH:0.45
;HEIGHT:0.3
G1 F600
G1 X12.806 Y-2.813 E2.27304
G1 X12.506 Y-2.374 E2.29861
G1 X13.106 Y-2.57 F7800
;TYPE:External perimeter
G1 F600
G1 X13.094 Y-2.555 E2.29953
;WIDTH:0.482648
G1 X12.786 Y-2.13 E2.32691
;WIDTH:0.515296
G1 X12.479 Y-1.704 E2.35644
;WIDTH:0.535628
G1 X12.448 Y-1.669 E2.35919
G1 X12.231 Y-1.084 E2.39586
;WIDTH:0.490211
G1 X12.013 Y-.499 E2.42902
;WIDTH:0.444794
G1 X11.796 Y.087 E2.45867
;TYPE:Overhang perimeter
;WIDTH:0.4
;HEIGHT:0.4
G1 F900
G1 X11.781 Y.128 E2.46095
G1 X11.515 Y.449 E2.48273
G1 X11.488 Y.033 E2.50451
G1 X12.001 Y-1.814 E2.60466
G1 X12.219 Y-2.938 E2.66448
G1 X12.66 Y-4.827 E2.76582
G1 X12.744 Y-4.762 E2.77137
G1 X12.934 Y-4.733 E2.78141
G1 X13.418 Y-4.921 E2.80854
G1 X13.702 Y-4.823 E2.82424
G1 X14.641 Y-4.455 E2.87693
G1 X13.844 Y-3.477 E2.94284
;TYPE:External perimeter
;WIDTH:0.45
;HEIGHT:0.3
G1 F600
G1 X13.144 Y-2.616 E2.99621
G1 X12.906 Y-2.294 F7800
;LAYER_CHANGE
;Z:0.95
;HEIGHT:0.3
G1 Z.95 F7800
G1 X12.684 Y-2.914
;TYPE:Perimeter
G1 F754
G1 X12.334 Y-2.483 E3.02291
G1 X12.966 Y-5.201 E3.15712
;TYPE:Overhang perimeter
;WIDTH:0.4
;HEIGHT:0.4
G1 F900
G1 X13.078 Y-5.68 E3.18282
G1 X13.27 Y-5.651 E3.19296
G1 X13.43 Y-5.713 E3.20192
G1 X14.607 Y-5.244 E3.26811
G1 X14.404 Y-5.004 E3.28453
;TYPE:Perimeter
;WIDTH:0.45
;HEIGHT:0.3
G1 F754
G1 X13.92 Y-4.435 E3.32046
G1 X12.722 Y-2.96 E3.41185
G1 X12.982 Y-2.671 F7800
G1 F754
G1 X12.652 Y-2.265 E3.43701
;WIDTH:0.451909
G1 X12.085 Y-1.409 E3.48664
G1 X11.923 Y-.973 E3.50912
;WIDTH:0.412469
G1 X11.761 Y-.537 E3.52931
;WIDTH:0.421224
G1 X11.708 Y-.473 E3.53301
;WIDTH:0.46942
G1 X11.655 Y-.408 E3.53725
;WIDTH:0.517615
G1 X11.602 Y-.344 E3.54195
;WIDTH:0.565811
G1 X11.548 Y-.28 E3.54719
;WIDTH:0.614007
G1 X11.495 Y-.216 E3.55289
G1 X11.49 Y-.299 E3.55859
;WIDTH:0.565811
G1 X11.485 Y-.382 E3.56379
;WIDTH:0.517615
G1 X11.479 Y-.465 E3.56849
;WIDTH:0.46942
G1 X11.474 Y-.548 E3.57269
;WIDTH:0.421224
G1 X11.468 Y-.631 E3.57639
;WIDTH:0.412097
G1 X11.61 Y-1.155 E3.59994
;WIDTH:0.451165
G1 X11.958 Y-2.568 E3.67014
;WIDTH:0.45
G1 X12.673 Y-5.641 E3.82189
;TYPE:Overhang perimeter
;WIDTH:0.4
;HEIGHT:0.4
G1 F900
G1 X12.772 Y-6.066 E3.84469
G1 X13.131 Y-6.011 E3.86366
G1 X13.43 Y-6.127 E3.88042
G1 X14.74 Y-5.615 E3.9539
G1 X15.188 Y-5.338 E3.98142
G1 X15.213 Y-5.309 E3.98342
G1 X14.783 Y-4.856 E4.01605
;TYPE:Perimeter
;WIDTH:0.45
;HEIGHT:0.3
G1 F754
G1 X14.219 Y-4.192 E4.05795
G1 X13.02 Y-2.717 E4.14937
G1 E2.14937 F2400
G92 E0
G1 X11.118 Y.949 F7800
G1 E2 F2400
;WIDTH:0.44829
G1 F754
G1 X11.194 Y.716 E2.01174
;WIDTH:0.489719
G1 X11.269 Y.483 E2.02473
;WIDTH:0.531148
G1 X11.344 Y.25 E2.03898
;WIDTH:0.572577
G1 X11.42 Y.017 E2.05451
;WIDTH:0.614007
G1 X11.495 Y-.216 E2.07129
G1 E.07129 F2400
G92 E0
G1 X13.28 Y-2.428 F7800
G1 E2 F2400
;TYPE:External perimeter
;WIDTH:0.45
G1 F754
G1 X12.981 Y-2.062 E2.02273
G1 X12.441 Y-1.259 E2.06927
G1 X11.454 Y1.09 E2.19182
;WIDTH:0.495801
G1 X11.381 Y1.204 E2.1991
;WIDTH:0.541602
G1 X11.309 Y1.317 E2.20708
;WIDTH:0.587404
G1 X11.236 Y1.431 E2.21591
G1 X11.042 Y1.953 E2.25224
;WIDTH:0.540138
G1 X10.848 Y2.476 E2.28534
;WIDTH:0.492872
G1 X10.654 Y2.998 E2.3151
;WIDTH:0.445606
G1 X10.46 Y3.521 E2.34162
;WIDTH:0.398341
G1 X10.423 Y3.61 E2.34563
;WIDTH:0.420835
G1 X10.22 Y4.055 E2.36738
;TYPE:Overhang perimeter
;WIDTH:0.4
;HEIGHT:0.4
G1 F900
G1 X9.883 Y4.795 E2.40986
G1 X9.662 Y5.1 E2.42954
G1 X9.045 Y5.764 E2.4769
G1 X9.148 Y5.23 E2.50531
G1 X9.514 Y4.613 E2.54279
G1 X10.144 Y3.418 E2.61337
G1 X10.74 Y1.27 E2.72983
G1 X10.764 Y.866 E2.75097
G1 X12.525 Y-6.708 E3.15723
G1 X12.642 Y-6.538 E3.16801
G1 X12.803 Y-6.4 E3.17909
G1 X12.993 Y-6.37 E3.18914
G1 X13.415 Y-6.535 E3.21281
G1 X13.526 Y-6.504 E3.21883
G1 X14.973 Y-5.924 E3.30028
G1 X15.479 Y-5.591 E3.33193
G1 X15.744 Y-5.287 E3.353
G1 X15.163 Y-4.707 E3.39589
;TYPE:External perimeter
;WIDTH:0.45
;HEIGHT:0.3
G1 F754
G1 X14.518 Y-3.948 E3.4438
G1 X13.317 Y-2.475 E3.53521
G1 X13.065 Y-2.165 F7800
G1 E1.53521 F2400
G92 E0
G1 X13.142 Y-5.432 F7800
G1 E2 F2400
;TYPE:Bridge infill
;WIDTH:0.49
;HEIGHT:0.4
G1 F3600
G1 X14.048 Y-5.078 E2.07626
G1 X13.686 Y-4.639 E2.12087
G1 X13.209 Y-4.826 E2.16104
G1 X13.086 Y-4.295 E2.20377
G1 X13.324 Y-4.201 E2.22383
G1 X12.962 Y-3.763 E2.26838
G1 X12.771 Y-3.838 E2.28447
G1 E.28447 F2400
G92 E0
G1 X-12.629 Y.228 F7800
G1 E2 F2400
;TYPE:Overhang perimeter
;WIDTH:0.4
G1 F900
G1 X-11.189 Y3.621 E2.19257
G1 X-11.087 Y3.763 E2.2017
G1 X-11.247 Y3.397 F7800
M106 S239.7
;LAYER_CHANGE
;Z:1.25
;HEIGHT:0.3
G1 E.2017 F2400
G92 E0
G1 Z1.25 F7800
G1 X8.655 Y6.119
G1 E2 F2400
;TYPE:External perimeter
;WIDTH:0.443893
G1 F900
G1 X8.433 Y7.075 E2.04646
;TYPE:Overhang perimeter
;WIDTH:0.4
;HEIGHT:0.4
M106 S255
G1 X8.376 Y7.32 E2.0596
M106 S239.7
G1 X8.466 Y6.931 F7800
G1 E.0596 F2400
G92 E0
G1 X12.857 Y-2.772 F7800
G1 E2 F2400
;TYPE:Perimeter
;WIDTH:0.45
;HEIGHT:0.3
G1 F900
G1 X12.21 Y-1.974 E2.04941
;WIDTH:0.494399
G1 X12.084 Y-1.821 E2.06004
;WIDTH:0.538799
G1 X11.958 Y-1.667 E2.07181
;WIDTH:0.583199
G1 X11.832 Y-1.514 E2.08464
;WIDTH:0.627599
G1 X11.707 Y-1.36 E2.09857
;WIDTH:0.671999
G1 X11.581 Y-1.207 E2.11359
G1 X11.578 Y-1.281 E2.1192
;WIDTH:0.631916
G1 X11.574 Y-1.355 E2.12445
;WIDTH:0.591833
G1 X11.571 Y-1.43 E2.12939
;WIDTH:0.551751
G1 X11.613 Y-1.686 E2.14516
;WIDTH:0.517834
G1 X11.655 Y-1.942 E2.15983
;WIDTH:0.483917
G1 X11.698 Y-2.198 E2.17341
;WIDTH:0.45
G1 X12.821 Y-7.027 E2.41187
;TYPE:Overhang perimeter
;WIDTH:0.4
;HEIGHT:0.4
M106 S255
G1 X12.891 Y-7.329 E2.42807
G1 X13.236 Y-7.258 E2.44647
G1 X13.427 Y-7.327 E2.45708
G1 X14.452 Y-6.926 E2.51458
G1 X14.884 Y-6.653 E2.54128
G1 X15.105 Y-6.47 E2.55627
G1 X15.369 Y-6.167 E2.57727
M106 S239.7
;TYPE:Perimeter
;WIDTH:0.45
;HEIGHT:0.3
G1 X15.661 Y-5.832 E2.59864
G1 X14.933 Y-5.137 E2.64705
G1 X14.825 Y-5.101 E2.65253
G1 X14.596 Y-4.953 E2.66564
G1 X14.153 Y-4.326 E2.70256
G1 X13.567 Y-3.646 E2.74573
G1 X12.895 Y-2.819 E2.79698
G1 E.79698 F2400
G92 E0
G1 X11.581 Y-1.207 F7800
G1 E2 F2400
;WIDTH:0.671999
G1 F900
G1 X11.5 Y-.956 E2.01999
;WIDTH:0.627462
G1 X11.419 Y-.706 E2.03845
;WIDTH:0.582926
G1 X11.338 Y-.455 E2.05551
;WIDTH:0.53839
G1 X11.257 Y-.205 E2.07105
;WIDTH:0.493853
G1 X11.175 Y.046 E2.08519
;WIDTH:0.449317
G1 X11.094 Y.296 E2.09781
;WIDTH:0.404781
G1 X11.013 Y.546 E2.10897
;WIDTH:0.360245
G1 X10.914 Y.792 E2.11876
;WIDTH:0.394392
G1 X10.764 Y1.095 E2.13268
;WIDTH:0.435053
G1 X10.615 Y1.398 E2.14829
;WIDTH:0.475714
G1 X10.466 Y1.701 E2.16561
;WIDTH:0.516375
G1 X10.316 Y2.003 E2.18462
;WIDTH:0.557037
G1 X10.167 Y2.306 E2.20537
G1 E.20537 F2400
G92 E0
G1 X13.155 Y-2.53 F7800
G1 E2 F2400
;WIDTH:0.45
G1 F900
G1 X12.559 Y-1.799 E2.04536
G1 X12.039 Y-1.014 E2.09065
G1 X9.901 Y4.073 E2.35605
G1 X9.273 Y4.853 E2.40421
G1 X9.451 Y3.841 E2.45363
;TYPE:Overhang perimeter
;WIDTH:0.4
;HEIGHT:0.4
M106 S255
G1 X9.748 Y2.155 E2.54307
G1 X10.22 Y1.326 E2.59291
M106 S239.7
;TYPE:Perimeter
;WIDTH:0.45
;HEIGHT:0.3
G1 X10.62 Y.625 E2.63173
G1 X10.681 Y.469 E2.63979
G1 X12.55 Y-7.567 E3.03661
;TYPE:Overhang perimeter
;WIDTH:0.4
;HEIGHT:0.4
M106 S255
G1 X12.595 Y-7.758 E3.04686
G1 X12.622 Y-7.736 E3.04868
G1 X13.135 Y-7.63 E3.07605
G1 X13.461 Y-7.728 E3.09383
G1 X14.646 Y-7.264 E3.16032
G1 X14.764 Y-7.17 E3.1682
G1 X15.259 Y-6.881 E3.19815
G1 X15.396 Y-6.723 E3.20908
G1 X16.193 Y-5.807 E3.27252
G1 X16.008 Y-5.63 E3.2859
M106 S239.7
;TYPE:Perimeter
;WIDTH:0.45
;HEIGHT:0.3
G1 X15.165 Y-4.826 E3.34193
G1 X14.886 Y-4.692 E3.35682
G1 X14.722 Y-4.508 E3.36867
G1 X14.445 Y-4.074 E3.39343
G1 X13.866 Y-3.402 E3.43609
G1 X13.193 Y-2.576 E3.48733
G1 X13.454 Y-2.286 F7800
;TYPE:External perimeter
G1 F900
G1 X12.858 Y-1.556 E3.53266
G1 X12.394 Y-.865 E3.57269
G1 X10.221 Y4.306 E3.84246
G1 X9.608 Y5.059 E3.88916
G1 X8.698 Y6.042 E3.95359
;WIDTH:0.445305
G1 X8.655 Y6.119 E3.95778
G1 X8.672 Y6.029 E3.96213
;WIDTH:0.449803
G1 X8.884 Y4.835 E4.02043
;TYPE:Overhang perimeter
;WIDTH:0.4
;HEIGHT:0.4
M106 S255
G1 X9.379 Y2.022 E4.16965
G1 X10.306 Y.382 E4.26807
G1 X12.393 Y-8.596 E4.74963
G1 X12.662 Y-8.208 E4.7743
G1 X12.862 Y-8.038 E4.78801
G1 X13.033 Y-8.002 E4.79714
G1 X13.472 Y-8.172 E4.82174
G1 X13.601 Y-8.087 E4.82981
G1 X14.799 Y-7.618 E4.89702
G1 X14.958 Y-7.503 E4.90727
G1 X15.508 Y-7.182 E4.94054
G1 X15.687 Y-6.977 E4.95476
G1 X16.726 Y-5.782 E5.03749
G1 X16.262 Y-5.339 E5.07101
M106 S239.7
;TYPE:External perimeter
;WIDTH:0.45
;HEIGHT:0.3
G1 X15.325 Y-4.445 E5.1333
G1 X15.181 Y-4.411 E5.14042
G1 X15.058 Y-4.318 E5.14784
G1 X14.737 Y-3.822 E5.17626
G1 X14.165 Y-3.159 E5.21838
G1 X13.492 Y-2.333 E5.26962
G1 X13.239 Y-2.023 F7800
G1 E3.26962 F2400
G92 E0
G1 X13.139 Y-4.473 F7800
G1 E2 F2400
;TYPE:Solid infill
G1 F1200
G1 X12.812 Y-4.448 E2.01577
G1 X12.528 Y-4.493 E2.0296
G1 X12.002 Y-2.231 E2.1413
G1 X12.039 Y-2.229 E2.14308
G1 X13.24 Y-3.702 E2.23449
G1 X13.783 Y-4.339 E2.27475
G1 X13.331 Y-4.488 E2.29764
G1 X12.948 Y-4.01 E2.3271
;WIDTH:0.597819
G1 X12.901 Y-4.057 E2.33152
G1 X12.836 Y-4.04 E2.33599
G1 X12.819 Y-3.975 E2.34046
G1 X12.866 Y-3.928 E2.34488
G1 X12.931 Y-3.946 E2.34937
G1 E.34937 F2400
G92 E0
G1 X13.388 Y-7.185 F7800
G1 E2 F2400
;TYPE:Bridge infill
;WIDTH:0.428097
;HEIGHT:0.4
M106 S255
G1 F3600
G1 X14.832 Y-6.294 E2.10154
G1 X15.217 Y-5.852 E2.13662
G1 X14.99 Y-5.635 E2.15541
G1 X13.098 Y-6.802 E2.28844
G1 X12.984 Y-6.311 E2.3186
G1 X14.582 Y-5.325 E2.43097
G1 X14.383 Y-5.196 E2.44516
G1 X14.214 Y-4.99 E2.46111
G1 X12.87 Y-5.82 E2.55564
G1 X12.755 Y-5.328 E2.58588
G1 X14.127 Y-4.482 E2.68234
M106 S239.7
G1 E.68234 F2400
G92 E0
G1 X-10.633 Y-.173 F7800
G1 E2 F2400
;TYPE:Overhang perimeter
;WIDTH:0.4
M106 S255
G1 F900
G1 X-10.656 Y.143 E2.01655
M106 S239.7
G1 E.01655 F2400
G92 E0
G1 X-10.767 Y5 F7800
G1 E2 F2400
;TYPE:External perimeter
;WIDTH:0.404381
;HEIGHT:0.3
G1 F900
G1 X-10.726 Y5.722 E2.03067
;TYPE:Overhang perimeter
;WIDTH:0.4
;HEIGHT:0.4
M106 S255
G1 X-10.713 Y5.963 E2.04328
M106 S239.7
G1 E.04328 F2400
G92 E0
G1 X-12.804 Y-1.531 F7800
G1 E2 F2400
M106 S255
G1 F900
G1 X-11.7 Y1.068 E2.14753
M106 S239.7
G1 X-11.16 Y1.246 F7800
M106 S255
G1 F900
G1 X-11.187 Y2.572 E2.21682
G1 X-11.567 Y1.576 E2.27251
G1 X-11.7 Y1.068 E2.29994
G1 X-11.313 Y1.304 E2.32362
G1 X-11.217 Y1.267 E2.329
M106 S239.7
G1 X-10.792 Y2.848 F7800
;TYPE:External perimeter
;WIDTH:0.45
;HEIGHT:0.3
G1 F900
G1 X-10.828 Y4.636 E2.41501
G1 X-13.131 Y-1.406 E2.726
;WIDTH:0.496667
G1 X-13.142 Y-1.464 E2.72918
;WIDTH:0.543334
G1 X-13.153 Y-1.522 E2.73271
;WIDTH:0.590001
G1 X-13.164 Y-1.579 E2.73652
;TYPE:Overhang perimeter
;WIDTH:0.4
;HEIGHT:0.4
M106 S255
G1 X-13.207 Y-1.805 E2.74854
G1 X-14.031 Y-3.852 E2.86382
G1 X-14.806 Y-5.91 E2.97871
G1 X-14.933 Y-6.044 E2.98836
G1 X-14.814 Y-6.365 E3.00625
G1 X-14.661 Y-6.366 E3.01424
G1 X-14.5 Y-6.035 E3.03347
G1 X-12.722 Y-2.011 E3.26331
G1 X-12.488 Y-1.679 E3.28453
G1 X-11.317 Y.818 E3.42862
G1 X-11.198 Y.92 E3.43681
G1 X-10.979 Y.837 E3.44905
G1 X-10.744 Y.457 E3.47239
G1 X-10.791 Y2.788 E3.5942
M106 S239.7
G1 X-10.799 Y3.188 F7800
M106 S226.95
;LAYER_CHANGE
;Z:1.55
;HEIGHT:0.3
G1 E1.5942 F2400
G92 E0
G1 Z1.55 F7800
G1 X8.025 Y8.015
G1 E2 F2400
;TYPE:External perimeter
;WIDTH:0.614111
G1 F900
G1 X8.071 Y7.784 E2.01615
G1 E.01615 F2400
G92 E0
G1 X14.579 Y-4.757 F7800
G1 E2 F2400
;TYPE:Perimeter
;WIDTH:0.45
G1 F900
G1 X14.513 Y-4.722 E2.00359
G1 X14.309 Y-4.472 E2.01911
G1 X13.799 Y-3.57 E2.06895
G1 X13.667 Y-3.382 E2.08
G1 X13.214 Y-2.857 E2.11335
G1 X12.087 Y-1.467 E2.19942
G1 X11.637 Y-.77 E2.23932
G1 X9.892 Y3.381 E2.45589
G1 X9.518 Y3.841 E2.4844
G1 X10.36 Y-.942 E2.71798
G1 X11.033 Y-2.123 E2.78336
G1 X11.194 Y-2.485 E2.80242
G1 X12.696 Y-8.946 E3.12146
;TYPE:Overhang perimeter
;WIDTH:0.4
;HEIGHT:0.4
M106 S255
G1 X12.71 Y-9.005 E3.12463
G1 X13.218 Y-8.879 E3.15197
G1 X13.423 Y-8.941 E3.16316
G1 X14.407 Y-8.556 E3.21836
G1 X14.586 Y-8.414 E3.2303
G1 X15.079 Y-8.125 E3.26016
G1 X15.44 Y-7.71 E3.2889
M106 S226.95
;TYPE:Perimeter
;WIDTH:0.45
;HEIGHT:0.3
G1 X16.648 Y-6.321 E3.37744
G1 X16.568 Y-6.244 E3.38278
G1 X15.235 Y-5.008 E3.47021
G1 X14.89 Y-4.925 E3.48728
G1 X14.632 Y-4.786 E3.50138
G1 X14.808 Y-4.453 F7800
G1 F900
G1 X14.767 Y-4.432 E3.5036
G1 X14.645 Y-4.282 E3.5129
G1 X14.134 Y-3.38 E3.56276
G1 X13.959 Y-3.13 E3.57744
G1 X13.512 Y-2.613 E3.61031
G1 X12.406 Y-1.251 E3.6947
G1 X11.992 Y-.62 E3.731
G1 X10.226 Y3.582 E3.95022
G1 X9.263 Y4.764 E4.02355
G1 X8.894 Y5.162 E4.04965
G1 X9.695 Y.611 E4.2719
;TYPE:Overhang perimeter
;WIDTH:0.4
;HEIGHT:0.4
M106 S255
G1 X9.992 Y-1.075 E4.36134
G1 X10.357 Y-1.716 E4.39988
M106 S226.95
;TYPE:Perimeter
;WIDTH:0.45
;HEIGHT:0.3
G1 X10.818 Y-2.573 E4.44668
G1 X12.428 Y-9.493 E4.7884
;TYPE:Overhang perimeter
;WIDTH:0.4
;HEIGHT:0.4
M106 S255
G1 X12.445 Y-9.57 E4.79252
G1 X12.681 Y-9.374 E4.80855
G1 X13.147 Y-9.258 E4.83364
G1 X13.442 Y-9.362 E4.84998
G1 X14.582 Y-8.901 E4.91422
G1 X14.781 Y-8.747 E4.92737
G1 X15.329 Y-8.425 E4.96058
G1 X17.179 Y-6.299 E5.10782
G1 X16.995 Y-6.121 E5.1212
M106 S226.95
;TYPE:Perimeter
;WIDTH:0.45
;HEIGHT:0.3
G1 X16.836 Y-5.967 E5.13185
G1 X15.423 Y-4.656 E5.22456
G1 X15.015 Y-4.559 E5.24473
G1 X14.861 Y-4.48 E5.25305
G1 X15.042 Y-4.138 F7800
;TYPE:External perimeter
G1 F1800
G1 X14.981 Y-4.091 E5.25675
G1 X14.47 Y-3.19 E5.30657
G1 X14.251 Y-2.878 E5.3249
G1 X13.811 Y-2.369 E5.35726
G1 X12.725 Y-1.035 E5.43999
G1 X12.348 Y-.471 E5.47262
G1 X10.56 Y3.782 E5.69452
G1 X9.565 Y5.003 E5.77028
G1 X8.729 Y5.92 E5.82996
