;FLAVOR:Marlin
;TIME:1124
;Filament used: 1.08966m
;Layer height: 0.13
;MINX:-24.923
;MINY:-5.207
;MINZ:0.3
;MAXX:24.909
;MAXY:5.221
;MAXZ:26.95
;Generated with Cura_SteamEngine main
M104 S205
M105
M109 S205
M82 ;absolute extrusion mode
G28 ; home


;Prime the extruder
G92 E0
G1 F200 E3
G92 E0
M83 ;relative extrusion mode
G1 F3600 E-1
;LAYER_COUNT:207
;LAYER:0
M107
;MESH:pi 3mm_deformed_tet.stl
G0 F9600 X-8.844 Y-.711 Z0.3
;TYPE:WALL-OUTER
G1 F3600 E1
G1 F340.1 X-8.904 Y-0.03 E0.0677
G1 F347.5 X-8.842 Y0.573 E0.05875
G1 F414.1 X-8.78 Y1.176 E0.0493
G1 F512.3 X-8.718 Y1.779 E0.03984
G1 F671.6 X-8.656 Y2.382 E0.03039
G1 F862.6 X-8.629 Y2.709 E0.01281
G1 F3600 E-1
;MESH:NONMESH
G0 F600 X-8.629 Y2.709 Z0.43
G0 F9600 X6.63 Y0.061
;TIME_ELAPSED:2.521513
;LAYER:1
M106 S255
;TYPE:WALL-OUTER
;MESH:pi 3mm_deformed_tet.stl
G1 F3600 E1
G1 F2204.1 X6.574 Y-.488 E0.01044
G1 F3013.4 X6.517 Y-1.037 E0.00764
G1 F4791.5 X6.46 Y-1.586 E0.0048
G1 F3600 E-1
G0 F12000 X-8.949 Y-0.047
G0 X-8.772 Y1.465
G1 F3600 E1
G1 F1390 X-8.738 Y0.726 E0.02219
G1 F1590.6 X-8.703 Y-0.013 E0.01939
G1 F600 X-8.67 Y-1.688 E0.04075
G1 X-8.646 Y-2.9 E0.02948
G1 X-8.65 Y-3.227 E0.00795
G1 X-9.05 Y-2.634 E0.0174
G1 X-9.495 Y-1.309 E0.03399
G1 X-9.697 Y0.00 E0.03221
G1 F570.8 X-9.569 Y0.503 E0.01327
G1 F519.2 X-9.44 Y1.006 E0.01459
G1 F476.2 X-9.311 Y1.509 E0.01591
G1 X-9.236 Y2.094 E0.01807
G1 F519.2 X-9.161 Y2.678 E0.01655
G1 F543.3 X-8.831 Y3.209 E0.01679
G1 X-8.733 Y3.332 E0.00422
G1 X-8.724 Y2.598 E0.01972
G1 F519.2 X-8.748 Y2.032 E0.01592
G1 F1360.5 X-8.767 Y1.592 E0.0135
G1 X-8.772 Y1.465 E0.00389
G0 F12000 X-8.735 Y0.666
G0 X-9.197 Y-0.013
;TYPE:WALL-INNER
G1 F2820.6 X-9.145 Y-.612 E0.01778
G1 F3318 X-9.093 Y-1.212 E0.01514
G1 F3600 E-1
;MESH:NONMESH
G0 F600 X-9.093 Y-1.212 Z0.56
G0 F12000 X-8.884 Y-2.409
G0 X6.615 Y-3.787
;TIME_ELAPSED:4.424572
;LAYER:2
;TYPE:WALL-OUTER
;MESH:pi 3mm_deformed_tet.stl
G1 F3600 E1
G1 F749.9 X6.623 Y-2.577 E0.02943
G1 X6.667 Y0.065 E0.06427
G1 X6.602 Y2.795 E0.06642
G1 X6.594 Y3.645 E0.02067
G1 X6.868 Y3.272 E0.01126
G1 X7.245 Y2.584 E0.01908
G1 X7.585 Y1.458 E0.02861
G1 X7.88 Y0.027 E0.03554
G1 X7.686 Y-.971 E0.02473
G1 X7.339 Y-2.508 E0.03832
G1 X6.992 Y-3.281 E0.02061
G1 X6.615 Y-3.787 E0.01535
G0 F12000 X6.62 Y-2.987
G1 F3600 E-1
G0 F12000 X6.895 Y-2.827
G0 X7.173 Y-.871
;TYPE:WALL-INNER
G1 F3600 E1
G1 F932.2 X7.267 Y0.024 E0.03521
G1 F3600 E-1
G0 F12000 X6.883 Y1.238
G0 X-8.92 Y1.23
G1 F3600 E1
G0 F12000 X-9.107 Y1.713
G1 F3984.3 X-9.132 Y1.144 E0.0149
G1 F3597.7 X-9.157 Y0.574 E0.01653
G1 F3285.1 X-9.182 Y0.005 E0.01807
G1 F3246.4 X-9.152 Y-.566 E0.01836
G1 F3468.3 X-9.122 Y-1.137 E0.01718
G1 F3722.7 X-9.092 Y-1.709 E0.01604
G1 F3864.5 X-9.074 Y-2.635 E0.02498
G1 X-9.069 Y-2.865 E0.0062
G1 X-9.37 Y-2.416 E0.01458
G1 X-9.585 Y-1.773 E0.01829
G1 F3722.7 X-9.657 Y-1.178 E0.01678
G1 F3468.3 X-9.729 Y-.582 E0.01804
G1 F3246.4 X-9.801 Y0.013 E0.01924
G1 F3296.4 X-9.709 Y0.588 E0.01841
G1 F3618 X-9.637 Y1.169 E0.01687
G1 F3992.5 X-9.564 Y1.751 E0.01531
G1 F2966.7 X-9.3 Y2.16 E0.0171
G1 X-9.107 Y1.713 E0.0171
G1 F3600 E-1
G0 F12000 X-9.407 Y0.849
G0 X-9.499 Y-0.058
G1 F3600 E1
G0 F12000 X-8.675 Y-0.042
;TYPE:WALL-OUTER
G1 F2142.6 X-8.616 Y-3.015 E0.07232
G1 F749.9 X-8.62 Y-3.305 E0.00705
G1 X-8.632 Y-4.316 E0.02459
G1 X-9.776 Y-2.617 E0.04982
G1 X-10.024 Y-1.879 E0.01894
G1 X-10.315 Y0.027 E0.04689
G1 X-10.182 Y0.668 E0.01592
G1 X-9.84 Y2.691 E0.0499
G1 X-9.249 Y3.646 E0.02731
G1 X-8.682 Y4.351 E0.022
G1 X-8.681 Y3.471 E0.0214
G1 X-8.675 Y-0.042 E0.08544
G0 F12000 X-8.66 Y-.842
G1 F3600 E-1
G0 F12000 X-9.4 Y-.845
G0 X-9.3 Y2.16
;TYPE:WALL-INNER
G1 F3600 E1
G1 F2366.1 X-9.273 Y2.478 E0.01406
G1 F3600 E-1
;MESH:NONMESH
G0 F600 X-9.273 Y2.478 Z0.69
G0 F12000 X-8.919 Y-0.042
G0 X6.885 Y-.303
G0 X7.029 Y-2.578
;TIME_ELAPSED:8.188401
;LAYER:3
;TYPE:WALL-INNER
;MESH:pi 3mm_deformed_tet.stl
G1 F3600 E1
G1 F4800 X7.04 Y-2.314 E0.00643
G1 X7.078 Y0.058 E0.0577
G1 X7.009 Y2.925 E0.06975
G1 F1680 X7.008 Y3.07 E0.00353
G1 X6.996 Y4.505 E0.0349
G1 X7.409 Y3.943 E0.01696
G1 X8.247 Y2.422 E0.04224
G1 X8.685 Y0.038 E0.05895
G1 X8.278 Y-1.952 E0.0494
G1 X8.182 Y-2.38 E0.01067
G1 X7.487 Y-3.93 E0.04131
G1 X7.107 Y-4.438 E0.01543
G1 X7.019 Y-4.437 E0.00214
G1 X7.025 Y-3.271 E0.02836
G1 X7.029 Y-2.578 E0.01686
G1 F3600 E-1
G0 F12000 X6.604 Y-2.562
;TYPE:WALL-OUTER
G1 F3600 E1
G1 F2400 X6.615 Y-2.308 E0.00618
G1 X6.653 Y0.065 E0.05772
G1 X6.584 Y2.921 E0.06948
G1 F840 X6.577 Y3.711 E0.01921
G1 X6.567 Y4.96 E0.03038
G1 X7.189 Y4.96 E0.01513
G1 X7.768 Y4.172 E0.02378
G1 X8.653 Y2.566 E0.0446
G1 X9.118 Y0.034 E0.06261
G1 X8.695 Y-2.037 E0.05141
G1 X8.587 Y-2.514 E0.01189
G1 X7.856 Y-4.147 E0.04351
G1 X7.319 Y-4.864 E0.02179
G1 X6.591 Y-4.86 E0.01771
G1 X6.597 Y-3.856 E0.02442
G1 X6.604 Y-2.562 E0.03147
G0 F12000 X6.615 Y-2.308
G0 X6.623 Y-1.762
G1 F3600 E-1
G0 F12000 X7.448 Y-1.774
G1 F3600 E1
G0 F12000 X7.255 Y-2.598
;TYPE:SKIN
G1 F2400 X7.304 Y0.054 E0.06451
G1 X7.277 Y1.202 E0.02793
G1 F1935.5 X7.374 Y1.651 E0.01385
G1 F1671.8 X7.339 Y2.201 E0.01924
G1 F604.8 X7.336 Y2.378 E0.00598
G1 X7.319 Y3.462 E0.03662
G1 X7.949 Y2.314 E0.04423
G1 F585.1 X8.036 Y1.719 E0.021
G1 F677.4 X8.223 Y1.299 E0.01387
G1 F840 X8.434 Y0.151 E0.02839
G1 X8.454 Y0.044 E0.00265
G1 X7.98 Y-2.277 E0.05762
G1 X7.284 Y-3.823 E0.04124
G1 X7.248 Y-3.872 E0.00148
G1 X7.254 Y-2.761 E0.02702
G1 X7.255 Y-2.598 E0.00396
G0 F12000 X7.489 Y-2.211
;TYPE:SKIN
;BRIDGE
M107
G1 F1200 X7.776 Y-2.155 E0.00711
G0 F12000 X7.499 Y-1.598
G1 F1200 X7.905 Y-1.519 E0.01006
G0 F12000 X8.035 Y-.883
G1 F1200 X7.51 Y-.984 E0.013
G0 F12000 X7.522 Y-.371
G1 F1200 X8.164 Y-.246 E0.01591
G0 F12000 X8.165 Y0.364
G1 F1200 X7.524 Y0.24 E0.01588
G0 F12000 X7.51 Y0.848
G1 F1200 X8.057 Y0.955 E0.01356
G0 F12000 X7.809 Y1.518
G1 F1200 X7.626 Y1.482 E0.00454
G0 F12000 X7.663 Y1.462
G1 F3600 E-1
G0 F12000 X6.827 Y2.922
G0 X-8.879 Y2.742
G1 F3600 E1
G0 F12000 X-9.076 Y3.118
;TYPE:WALL-INNER
M106 S255
G1 F4800 X-9.071 Y2.266 E0.02072
G1 X-9.07 Y-0.045 E0.05621
G1 X-9.01 Y-3.126 E0.07495
G1 X-9.019 Y-3.784 E0.01601
G1 X-9.022 Y-4.041 E0.00625
G1 X-10.131 Y-2.389 E0.04839
G1 X-10.352 Y-.935 E0.03577
G1 X-10.493 Y0.052 E0.02425
G1 X-10.366 Y0.921 E0.02136
G1 X-10.092 Y2.546 E0.04008
G1 X-9.3 Y3.827 E0.03663
G1 X-9.078 Y4.103 E0.00861
G1 X-9.078 Y3.901 E0.00491
G1 X-9.076 Y3.118 E0.01904
G1 F3600 E-1
G0 F12000 X-8.651 Y3.136
;TYPE:WALL-OUTER
G1 F3600 E1
G1 F2400 X-8.646 Y2.256 E0.0214
G1 X-8.645 Y-0.036 E0.05574
G1 X-8.585 Y-3.131 E0.07529
G1 F840 X-8.601 Y-4.391 E0.03065
G1 X-8.607 Y-4.883 E0.01197
G1 X-8.61 Y-5.042 E0.00387
G1 X-8.856 Y-5.046 E0.00598
G1 X-10.537 Y-2.548 E0.07323
G1 X-10.773 Y-.996 E0.03818
G1 X-10.923 Y0.052 E0.02575
G1 X-10.79 Y0.969 E0.02254
G1 X-10.498 Y2.699 E0.04267
G1 X-9.648 Y4.073 E0.0393
G1 X-8.815 Y5.104 E0.03224
G1 X-8.654 Y5.102 E0.00392
G1 X-8.653 Y4.424 E0.01649
G1 X-8.651 Y3.136 E0.03133
G0 F12000 X-8.647 Y2.336
G1 F3600 E-1
G0 F12000 X-9.469 Y2.354
G1 F3600 E1
G0 F12000 X-9.333 Y3.279
;TYPE:SKIN
G1 F2065 X-9.32 Y2.756 E0.01479
G1 X-9.33 Y2.354 E0.01137
G1 F1981.7 X-9.353 Y1.778 E0.01698
G1 F1827.4 X-9.377 Y1.201 E0.01845
G1 F1695.4 X-9.4 Y0.624 E0.01988
G1 F1581.3 X-9.424 Y0.047 E0.02132
G1 F1569.8 X-9.396 Y-.509 E0.0207
G1 F1656.4 X-9.367 Y-1.065 E0.01962
G1 F1753.2 X-9.338 Y-1.621 E0.01854
G1 F1862.1 X-9.309 Y-2.178 E0.01748
G1 F1918.3 X-9.289 Y-3.142 E0.02934
G1 X-9.859 Y-2.289 E0.03122
G1 F1858.9 X-9.928 Y-1.704 E0.0185
G1 F1750.4 X-9.997 Y-1.118 E0.01968
G1 F1653.9 X-10.066 Y-.532 E0.02082
G1 F1567.5 X-10.135 Y0.054 E0.02197
G1 F1590.6 X-10.045 Y0.866 E0.02998
G1 F1714.3 X-9.977 Y1.395 E0.01816
G1 F1839.9 X-9.909 Y1.925 E0.01695
G1 F1985.3 X-9.841 Y2.454 E0.01568
G1 F2065 X-9.333 Y3.279 E0.02739
G1 F3600 E-1
;MESH:NONMESH
G0 F600 X-9.333 Y3.279 Z0.82
G0 F12000 X-9.403 Y3.04
G0 X-8.896 Y4.516
G0 X6.813 Y4.647
G0 X6.979 Y4.528
;TIME_ELAPSED:14.253093
;LAYER:4
;TYPE:WALL-INNER
;MESH:pi 3mm_deformed_tet.stl
G1 F3600 E1
G1 F1680 X7.539 Y4.529 E0.01362
G1 X8.441 Y4.53 E0.02194
G1 X9.083 Y3.15 E0.03702
G1 X9.34 Y2.483 E0.01738
G1 X9.621 Y1.194 E0.03209
G1 X9.781 Y0.315 E0.02173
G1 X9.831 Y0.043 E0.00673
G1 X9.573 Y-1.117 E0.0289
G1 X9.31 Y-2.407 E0.03202
G1 X8.486 Y-4.442 E0.0534
G1 X7.673 Y-4.436 E0.01977
G1 X7 Y-4.431 E0.01637
G1 F4800 X7.012 Y-2.564 E0.04541
G1 X7.028 Y-2.173 E0.00952
G1 X7.064 Y0.085 E0.05492
G1 X6.991 Y3.048 E0.07209
G1 X6.979 Y4.528 E0.036
G1 F3600 E-1
G0 F12000 X6.551 Y4.953
;TYPE:WALL-OUTER
G1 F3600 E1
G1 F840 X7.249 Y4.954 E0.01698
G1 X8.712 Y4.955 E0.03558
G1 X9.475 Y3.316 E0.04397
G1 X9.748 Y2.605 E0.01852
G1 X10.034 Y1.3 E0.03249
G1 X10.2 Y0.391 E0.02247
G1 X10.264 Y0.035 E0.0088
G1 X9.99 Y-1.202 E0.03081
G1 X9.718 Y-2.53 E0.03297
G1 X8.772 Y-4.869 E0.06136
G1 X7.38 Y-4.859 E0.03386
G1 X6.573 Y-4.853 E0.01963
G1 F2400 X6.587 Y-2.546 E0.05611
G1 X6.603 Y-2.166 E0.00925
G1 X6.639 Y0.075 E0.05451
G1 X6.566 Y3.045 E0.07226
G1 X6.551 Y4.953 E0.04641
G0 F12000 X7.351 Y4.953
G0 X7.207 Y4.303
;TYPE:SKIN
G1 F840 X7.705 Y4.303 E0.01211
G1 X8.298 Y4.304 E0.01442
G1 X8.876 Y3.062 E0.03332
G1 X9.122 Y2.42 E0.01672
G1 X9.403 Y1.134 E0.03202
G1 X9.6 Y0.049 E0.02682
G1 X9.353 Y-1.069 E0.02785
G1 X9.091 Y-2.343 E0.03163
G1 X8.335 Y-4.215 E0.0491
G1 X7.841 Y-4.211 E0.01202
G1 X7.228 Y-4.207 E0.01491
G1 F2400 X7.237 Y-2.57 E0.03981
G1 X7.253 Y-2.204 E0.00891
G1 X7.29 Y0.088 E0.05575
G1 X7.218 Y3.022 E0.07138
G1 X7.213 Y3.635 E0.01491
G1 X7.207 Y4.303 E0.01625
G1 F3600 E-1
G0 F12000 X7.352 Y4.159
G0 X8.237 Y3.899
;TYPE:SKIN
;BRIDGE
M107
G1 F3600 E1
G1 F1200 X7.434 Y4.055 E0.0199
G0 F12000 X7.439 Y3.443
G1 F1200 X8.549 Y3.227 E0.0275
G0 F12000 X8.825 Y2.563
G1 F1200 X7.447 Y2.83 E0.03414
G0 F12000 X7.463 Y2.216
G1 F1200 X9.001 Y1.917 E0.03811
G0 F12000 X9.141 Y1.279
G1 F1200 X7.478 Y1.602 E0.0412
G0 F12000 X7.493 Y0.988
G1 F1200 X9.262 Y0.644 E0.04383
G0 F12000 X9.361 Y0.013
G1 F1200 X7.508 Y0.374 E0.04591
G0 F12000 X7.51 Y-.237
G1 F1200 X9.232 Y-.572 E0.04267
G0 F12000 X9.105 Y-1.158
G1 F1200 X7.5 Y-.846 E0.03977
G0 F12000 X7.49 Y-1.456
G1 F1200 X8.983 Y-1.746 E0.03699
G0 F12000 X8.852 Y-2.332
G1 F1200 X7.48 Y-2.065 E0.034
G0 F12000 X7.46 Y-2.672
G1 F1200 X8.624 Y-2.898 E0.02884
G0 F12000 X8.394 Y-3.465
G1 F1200 X7.457 Y-3.283 E0.02322
G0 F12000 X7.454 Y-3.894
G1 F1200 X7.933 Y-3.986 E0.01186
G0 F12000 X7.934 Y-3.688
G1 F3600 E-1
G0 F12000 X6.83 Y-2.587
G0 X-8.804 Y-2.734
G0 X-9.406 Y-1.683
G1 F3600 E1
G0 F12000 X-9.314 Y-1.681
;TYPE:FILL
M106 S255
G1 F14845.4 X-9.362 Y-1.119 E0.00887
G1 F11835.6 X-9.411 Y-.557 E0.01113
G1 F9840.5 X-9.459 Y0.005 E0.01338
G1 F10237 X-9.405 Y0.528 E0.01199
G1 F13292.3 X-9.362 Y1.042 E0.00906
G1 F17925.3 X-9.319 Y1.556 E0.00672
G1 F27692.3 X-9.276 Y2.071 E0.00436
G1 F3600 E-1
G0 F12000 X-9.441 Y2.07
G0 X-9.381 Y4.118
G1 F3600 E1
G0 F12000 X-9.051 Y4.67
;TYPE:WALL-INNER
G1 F4800 X-9.048 Y3.229 E0.03505
G1 X-9.027 Y2.716 E0.01249
G1 X-9.042 Y2.115 E0.01462
G1 X-9.041 Y-0.041 E0.05244
G1 X-8.985 Y-2.738 E0.06561
G1 X-8.982 Y-3.224 E0.01182
G1 X-8.998 Y-4.613 E0.03378
G1 X-9.175 Y-4.616 E0.00431
G1 X-9.356 Y-4.62 E0.0044
G1 X-10.374 Y-3.1 E0.04449
G1 X-10.688 Y-2.544 E0.01553
G1 X-11.06 Y0.054 E0.06383
G1 X-10.689 Y2.577 E0.06202
G1 X-10.576 Y2.836 E0.00687
G1 X-9.698 Y4.254 E0.04056
G1 X-9.357 Y4.674 E0.01316
G1 X-9.199 Y4.672 E0.00384
G1 X-9.051 Y4.67 E0.0036
G1 F3600 E-1
G0 F12000 X-8.626 Y5.089
;TYPE:WALL-OUTER
G1 F3600 E1
G1 F2400 X-8.623 Y3.248 E0.04478
G1 X-8.602 Y2.743 E0.01229
G1 X-8.617 Y2.105 E0.01552
G1 X-8.616 Y-0.032 E0.05197
G1 X-8.56 Y-2.735 E0.06576
G1 X-8.557 Y-3.22 E0.0118
G1 X-8.578 Y-5.031 E0.04405
G1 F840 X-8.893 Y-5.036 E0.00766
G1 X-9.58 Y-5.048 E0.01671
G1 X-10.737 Y-3.323 E0.05052
G1 X-11.098 Y-2.684 E0.01785
G1 X-11.49 Y0.055 E0.0673
G1 X-11.101 Y2.695 E0.0649
G1 X-10.953 Y3.033 E0.00897
G1 X-10.046 Y4.5 E0.04195
G1 X-9.558 Y5.103 E0.01887
G1 X-8.898 Y5.093 E0.01605
G1 X-8.626 Y5.089 E0.00662
G0 F12000 X-8.625 Y4.289
G1 F3600 E-1
G0 F12000 X-9.381 Y4.118
G0 X-9.512 Y-3.443
;TYPE:SKIN
G1 F3600 E1
G1 F1666.7 X-9.924 Y-2.825 E0.02601
G1 F1692.8 X-10.202 Y-2.33 E0.01958
G1 F1728 X-10.288 Y-1.735 E0.02031
G1 F1741.9 X-10.375 Y-1.139 E0.02018
G1 F1753.2 X-10.461 Y-.543 E0.02005
G1 F1767.6 X-10.548 Y0.053 E0.01989
G1 F1764.7 X-10.454 Y0.664 E0.02045
G1 F1744.7 X-10.36 Y1.276 E0.02071
G1 F1728 X-10.266 Y1.888 E0.02092
G1 F1708.9 X-10.172 Y2.5 E0.02115
G1 F1698.1 X-9.569 Y3.472 E0.03932
G1 F1695.4 X-9.537 Y2.383 E0.03751
G1 F1698.1 X-9.634 Y1.786 E0.02079
G1 F1708.9 X-9.731 Y1.189 E0.02066
G1 F1722.5 X-9.829 Y0.591 E0.02054
G1 F1753.2 X-9.936 Y0.016 E0.01947
G1 F1773.4 X-9.8 Y-.893 E0.03025
G1 F1761.8 X-9.663 Y-1.802 E0.03046
G1 F1711.6 X-9.522 Y-2.275 E0.01683
G1 F1666.7 X-9.512 Y-3.443 E0.04091
G0 F12000 X-9.733 Y-3.314
G1 F3600 E-1
;MESH:NONMESH
G0 F600 X-9.733 Y-3.314 Z0.95
G0 F12000 X-8.86 Y-0.031
G0 X6.81 Y3.041
G0 X7.352 Y4.159
G1 F3600 E1
G0 F12000 X6.963 Y4.522
;TIME_ELAPSED:21.659422
;LAYER:5
G1 F3600 E-1
;TYPE:WALL-INNER
;MESH:pi 3mm_deformed_tet.stl
G1 F3600 E1
G1 F4800 X8.94 Y4.526 E0.04808
G1 X8.965 Y4.526 E0.00061
G1 F1680 X9.604 Y4.534 E0.01554
G1 X9.884 Y3.925 E0.0163
G1 X10.437 Y2.492 E0.03736
G1 X10.971 Y0.042 E0.06099
G1 X10.875 Y-.393 E0.01083
G1 X10.507 Y-2.045 E0.04116
G1 X10.431 Y-2.417 E0.00923
G1 X10.131 Y-3.158 E0.01944
G1 X9.58 Y-4.45 E0.03416
G1 X8.973 Y-4.441 E0.01476
G1 X8.546 Y-4.434 E0.01039
G1 F4800 X6.984 Y-4.424 E0.03799
G1 X6.995 Y-2.552 E0.04553
G1 X7.017 Y-2.032 E0.01266
G1 X7.05 Y0.084 E0.05147
G1 X6.974 Y3.171 E0.0751
G1 X6.963 Y4.522 E0.03286
G1 F3600 E-1
G0 F12000 X6.534 Y4.947
;TYPE:WALL-OUTER
G1 F3600 E1
G1 F2400 X8.743 Y4.951 E0.05373
G1 X8.959 Y4.951 E0.00525
G1 F840 X9.875 Y4.963 E0.02228
G1 X10.276 Y4.09 E0.02337
G1 X10.845 Y2.614 E0.03847
G1 X11.407 Y0.041 E0.06405
G1 X11.289 Y-.485 E0.01311
G1 X10.923 Y-2.13 E0.04099
G1 X10.84 Y-2.54 E0.01017
G1 X10.522 Y-3.325 E0.0206
G1 X9.858 Y-4.88 E0.04112
G1 X8.802 Y-4.863 E0.02569
G1 X8.544 Y-4.859 E0.00628
G1 F2400 X6.557 Y-4.847 E0.04833
G1 X6.57 Y-2.535 E0.05623
G1 X6.592 Y-2.025 E0.01242
G1 X6.625 Y0.074 E0.05106
G1 X6.549 Y3.168 E0.07527
G1 X6.534 Y4.947 E0.04327
G0 F12000 X7.334 Y4.948
G0 X7.19 Y4.297
;TYPE:SKIN
G1 F2400 X8.84 Y4.299 E0.04013
G1 F840 X9.044 Y4.302 E0.00496
G1 X9.461 Y4.307 E0.01014
G1 X9.675 Y3.841 E0.01247
G1 X10.218 Y2.428 E0.03682
G1 X10.687 Y0.287 E0.05331
G1 X10.741 Y0.044 E0.00605
G1 X10.217 Y-2.337 E0.0593
G1 X9.9 Y-3.13 E0.02077
G1 X9.433 Y-4.222 E0.02889
G1 F2400 X9.062 Y-4.218 E0.00902
G1 X7.212 Y-4.201 E0.045
G1 X7.212 Y-3.996 E0.00499
G1 X7.978 Y-2.287 E0.04555
G1 X8.456 Y0.043 E0.05785
G1 X8.032 Y2.337 E0.05674
G1 X7.193 Y3.872 E0.04255
G1 X7.19 Y4.297 E0.01034
G0 F12000 X7.596 Y3.601
;TYPE:SKIN
;BRIDGE
M107
G1 F1200 X9.368 Y4.01 E0.04423
G0 F12000 X9.584 Y3.444
G1 F1200 X7.895 Y3.054 E0.04216
G0 F12000 X8.193 Y2.507
G1 F1200 X9.802 Y2.878 E0.04016
G0 F12000 X10.013 Y2.311
G1 F1200 X8.338 Y1.925 E0.04181
G0 F12000 X8.447 Y1.334
G1 F1200 X10.141 Y1.725 E0.04228
G0 F12000 X10.269 Y1.139
G1 F1200 X8.555 Y0.743 E0.04279
G0 F12000 X8.663 Y0.152
G1 F1200 X10.398 Y0.553 E0.04331
G0 F12000 X10.491 Y-0.041
G1 F1200 X8.576 Y-.483 E0.0478
G0 F12000 X8.445 Y-1.129
G1 F1200 X10.348 Y-.689 E0.0475
G0 F12000 X10.205 Y-1.338
G1 F1200 X8.315 Y-1.774 E0.04717
G0 F12000 X8.161 Y-2.426
G1 F1200 X10.062 Y-1.987 E0.04745
G0 F12000 X9.849 Y-2.652
G1 F1200 X7.852 Y-3.113 E0.04985
G0 F12000 X7.544 Y-3.8
G1 F1200 X9.567 Y-3.333 E0.0505
G1 X9.677 Y-3.308
G0 F12000 X9.316 Y-3.157
G1 F3600 E-1
G0 F12000 X6.869 Y0.069
G0 X-8.839 Y3.359
G0 X-9.392 Y4.293
G1 F3600 E1
G0 F12000 X-9.023 Y4.658
;TYPE:WALL-INNER
M106 S255
G1 F4800 X-9.02 Y3.34 E0.03206
G1 X-8.994 Y2.736 E0.0147
G1 X-9.013 Y1.964 E0.01878
G1 X-9.012 Y-0.035 E0.04862
G1 X-8.956 Y-2.73 E0.06556
G1 X-8.952 Y-3.33 E0.01459
G1 X-8.967 Y-4.601 E0.03091
G1 X-9.899 Y-4.618 E0.02267
G1 X-10.078 Y-4.621 E0.00435
G1 X-10.326 Y-4.252 E0.01081
G1 X-11.006 Y-3.049 E0.03361
G1 X-11.24 Y-2.526 E0.01394
G1 X-11.409 Y-1.463 E0.02618
G1 X-11.625 Y0.056 E0.03732
G1 X-11.398 Y1.609 E0.03817
G1 X-11.224 Y2.613 E0.02478
G1 X-11.01 Y3.1 E0.01294
G1 X-10.367 Y4.242 E0.03188
