; generated by PrusaSlicer 2.9.2 on 2025-05-08 at 12:56:23 UTC

; 

; external perimeters extrusion width = 0.45mm
; perimeters extrusion width = 0.45mm
; infill extrusion width = 0.45mm
; solid infill extrusion width = 0.45mm
; top infill extrusion width = 0.40mm
; first layer extrusion width = 0.42mm

; external perimeters extrusion width = 0.45mm
; perimeters extrusion width = 0.45mm
; infill extrusion width = 0.45mm
; solid infill extrusion width = 0.45mm
; top infill extrusion width = 0.40mm
; first layer extrusion width = 0.42mm

G10 S200 P0 ; set temperature
G10 S215 P1 ; set temperature
;TYPE:Custom
G10 S200 P0 ; set temperature
M116 ; wait for temperature to be reached
G10 S215 P1 ; set temperature
M116 ; wait for temperature to be reached
G21 ; set units to millimeters
G90 ; use absolute coordinates
M83 ; use relative distances for extrusion
T0
; Filament gcode
M107
;LAYER_CHANGE
;Z:0.35
;HEIGHT:0.35
G1 E-2 F2400
G1 Z.35 F7800
G1 X-2.152 Y-.024
G1 Z.35
G1 E2 F2400
;TYPE:Skirt/Brim
;WIDTH:0.42
G1 F816
G1 X-2.189 Y3.284 E.16603
G1 X-2.613 Y5.456 E.11106
G1 X-3.776 Y7.339 E.11107
G1 X-5.528 Y8.691 E.11106
G1 X-7.644 Y9.338 E.11105
G1 X-9.853 Y9.197 E.11109
G1 X-11.87 Y8.285 E.11109
G1 X-13.633 Y6.419 E.12883
G1 X-13.932 Y5.927 E.02889
G1 X-14.673 Y4.112 E.09839
G1 X-15.298 Y1.424 E.1385
G1 X-15.327 Y-1.241 E.13375
G1 X-14.733 Y-4.021 E.14267
G1 X-14.34 Y-5.23 E.0638
G1 X-13.397 Y-6.859 E.09446
G1 X-13.111 Y-7.217 E.023
G1 X-11.443 Y-8.671 E.11105
G1 X-9.369 Y-9.443 E.11106
G1 X-7.156 Y-9.434 E.11106
G1 X-5.088 Y-8.645 E.11108
G1 X-3.432 Y-7.177 E.11106
G1 X-2.4 Y-5.219 E.11108
G1 X-2.115 Y-3.361 E.09434
G1 X-2.152 Y-.084 E.16447
G1 E-2 F2400
G1 X-8.562 Y-2.214 F7800
G1 E2 F2400
;TYPE:External perimeter
;WIDTH:0.480082
G1 F816
G1 X-8.63 Y.012 E.13124
G1 X-8.619 Y1.834 E.10737
G1 X-9.04 Y.024 E.10951
G1 X-8.575 Y-2.156 E.13135
G1 X-8.574 Y-1.756 F7800
;LAYER_CHANGE
;Z:0.65
;HEIGHT:0.3
G1 Z.65 F7800
G1 Z.65
G1 X-9.86 Y-.23
;TYPE:Overhang perimeter
;WIDTH:0.4
;HEIGHT:0.4
G1 F900
G1 X-9.889 Y-.095 E.00721
G1 X-9.887 Y.159 E.01327
G1 X-9.367 Y2.426 E.12152
G1 X-9.231 Y2.853 E.02341
G1 X-8.933 Y3.379 E.03158
G1 X-8.909 Y4.041 E.03461
G1 X-9.54 Y2.979 E.06454
G1 X-9.767 Y2.517 E.02689
G1 X-10.305 Y.08 E.13039
G1 X-10.275 Y-.174 E.01336
G1 X-9.773 Y-2.53 E.12585
G1 X-9.422 Y-3.39 E.04853
G1 X-9.185 Y-3.877 E.0283
G1 X-8.868 Y-4.274 E.02654
G1 X-8.888 Y-3.587 E.03591
G1 X-9.04 Y-3.376 E.01359
G1 X-9.238 Y-2.961 E.02402
G1 X-9.397 Y-2.408 E.03006
G1 X-9.847 Y-.289 E.11318
G1 E-2 F2400
G1 X-8.516 Y5.127 F7800
G1 E2 F2400
G1 F900
G1 X-8.516 Y5.137 E.00052
G1 X-8.674 Y5.139 E.00826
G1 X-10.133 Y2.7 E.14848
G1 X-10.718 Y.039 E.14234
G1 X-10.156 Y-2.632 E.1426
G1 X-9.515 Y-4.077 E.08259
G1 X-8.703 Y-5.094 E.06799
G1 X-8.462 Y-5.093 E.01259
G1 X-8.467 Y-4.93 E.00852
G1 X-8.51 Y-3.448 E.07746
G1 X-8.751 Y-3.146 E.02019
G1 X-8.918 Y-2.775 E.02126
G1 X-9.507 Y-.013 E.14755
G1 X-9.507 Y.068 E.00423
G1 X-8.856 Y2.828 E.14815
G1 X-8.584 Y3.274 E.02729
G1 X-8.518 Y5.067 E.09374
G1 X-8.882 Y4.9 F7800
G1 E-10 F2400
; Filament-specific end gcode 
;END gcode for filament
M106 S127.5
T1
; Filament gcode
G1 E-2
G1 X-9.014 Y.024 F7800
G1 Z.65
G1 E2 F2400
;TYPE:External perimeter
;WIDTH:0.530307
;HEIGHT:0.3
G1 F600
G1 X-8.482 Y-2.469 E.14814
G1 X-8.542 Y.007 E.14393
G1 X-8.556 Y1.996 E.11559
G1 X-9.001 Y.083 E.11414
G1 X-8.939 Y-.313 F7800
M106 S255
;LAYER_CHANGE
;Z:0.95
;HEIGHT:0.3
G1 E-2 F2400
G1 Z.95 F7800
G1 Z.95
G1 X-8.406 Y-4.653
G1 E2 F2400
;WIDTH:0.536443
G1 F600
G1 X-8.399 Y-4.569 E.00496
;WIDTH:0.521049
G1 X-8.4 Y-2.803 E.10059
;WIDTH:0.524507
G1 X-8.402 Y-2.763 E.0023
G1 X-8.401 Y-3.163 F7800
G1 X-9.546 Y-3.67
;WIDTH:0.404381
G1 F600
G1 X-9.568 Y-3.634 E.00179
G1 X-9.631 Y-3.67 E.00308
G1 X-9.568 Y-3.707 E.0031
G1 E-2 F2400
G1 X-8.95 Y4.433 F7800
G1 E2 F2400
G1 F600
G1 X-8.974 Y4.408 E.00147
;WIDTH:0.424419
G1 X-9.45 Y3.807 E.03443
G1 X-8.488 Y2.286 F7800
;WIDTH:0.523483
G1 F600
G1 X-8.484 Y2.671 E.02205
;WIDTH:0.517545
G1 X-8.463 Y4.304 E.09231
;WIDTH:0.562233
G1 X-8.484 Y4.386 E.00526
;WIDTH:0.606921
G1 X-8.505 Y4.468 E.00573
;WIDTH:0.651609
G1 X-8.526 Y4.55 E.0062
G1 X-8.517 Y4.15 F7800
G1 X-8.488 Y2.286
;WIDTH:0.563623
G1 F600
G1 X-8.984 Y.078 E.14091
G1 X-8.98 Y-.055 E.00829
G1 X-8.442 Y-2.64 E.16441
;WIDTH:0.53717
G1 X-8.402 Y-2.763 E.00763
G1 X-8.41 Y-2.636 E.0075
;WIDTH:0.563623
G1 X-8.491 Y.003 E.1644
G1 X-8.488 Y2.226 E.13842
G1 X-8.59 Y1.84 F7800
G1 E-10 F2400
; Filament-specific end gcode
M107
T0
; Filament gcode
G1 X-10.097 Y.933 F7800
G1 Z.95
G1 E10 F2400
;TYPE:Perimeter
;WIDTH:0.45
G1 F900
G1 X-10.241 Y.838 E.0083
G1 X-10.545 Y.927 E.01524
G1 X-10.892 Y1.232 E.02222
;TYPE:Overhang perimeter
;WIDTH:0.4
;HEIGHT:0.4
G1 X-10.943 Y1.277 E.00355
G1 X-11.04 Y1.712 E.02328
G1 X-11.175 Y1.239 E.0257
G1 X-11.428 Y.044 E.06382
G1 X-11.136 Y-1.062 E.05976
G1 X-10.977 Y-1.875 E.04328
G1 X-10.934 Y-1.683 E.01028
G1 X-10.819 Y-1.555 E.00899
;TYPE:Perimeter
;WIDTH:0.45
;HEIGHT:0.3
G1 X-10.587 Y-1.298 E.01665
G1 X-10.205 Y-1.155 E.01962
G1 X-10.033 Y-1.248 E.0094
G1 X-10.279 Y-.056 E.05854
G1 X-10.257 Y.247 E.01461
G1 X-10.11 Y.874 E.03097
G1 X-9.896 Y.032 F7800
G1 F900
G1 X-9.897 Y.039 E.00034
G1 X-9.519 Y1.658 E.07996
G1 X-10.173 Y1.218 E.03791
G1 X-10.38 Y1.275 E.01033
G1 X-10.619 Y1.485 E.0153
G1 X-10.758 Y1.842 E.01843
;TYPE:Overhang perimeter
;WIDTH:0.4
;HEIGHT:0.4
G1 X-10.775 Y1.886 E.00246
G1 X-10.673 Y2.408 E.02779
G1 X-10.157 Y4.161 E.09547
G1 X-10.007 Y4.379 E.01383
G1 X-9.627 Y4.761 E.02815
G1 X-10.154 Y4.768 E.02754
G1 X-10.49 Y4.154 E.03657
G1 X-11.151 Y2.531 E.09156
G1 X-11.288 Y1.994 E.02895
G1 X-11.549 Y1.332 E.03718
G1 X-11.824 Y.034 E.06932
G1 X-11.515 Y-1.136 E.06322
G1 X-11.395 Y-1.746 E.03248
G1 X-11.239 Y-2.181 E.02414
G1 X-11.167 Y-2.536 E.01892
G1 X-10.596 Y-4.107 E.08733
G1 X-10.324 Y-4.672 E.03276
G1 X-9.666 Y-4.668 E.03438
G1 X-10.148 Y-4.16 E.03659
G1 X-10.296 Y-3.862 E.01738
G1 X-10.673 Y-2.384 E.07969
G1 X-10.719 Y-2.125 E.01374
G1 X-10.705 Y-2.097 E.00164
;TYPE:Perimeter
;WIDTH:0.648337
;HEIGHT:0.3
G1 X-10.676 Y-2.036 E.00492
;WIDTH:0.598752
G1 X-10.647 Y-1.976 E.00444
;WIDTH:0.549168
G1 X-10.618 Y-1.915 E.00408
;WIDTH:0.499584
G1 X-10.588 Y-1.855 E.00364
;WIDTH:0.45
G1 X-10.38 Y-1.624 E.01495
G1 X-10.126 Y-1.533 E.01298
G1 X-9.486 Y-1.888 E.0352
G1 X-9.713 Y-.898 E.04885
G1 X-9.884 Y-.027 E.04269
G1 X-9.486 Y-1.888 F7800
;WIDTH:0.419163
G1 F900
G1 X-9.377 Y-2.378 E.02221
G1 E-2 F2400
G1 X-9.353 Y2.388 F7800
G1 E2 F2400
;WIDTH:0.436877
G1 F900
G1 X-9.519 Y1.658 E.03478
G1 X-9.499 Y.028 F7800
;TYPE:External perimeter
;WIDTH:0.45
G1 F900
G1 X-9.506 Y.071 E.0021
G1 X-8.968 Y2.37 E.11356
G1 X-8.952 Y3.787 E.06816
G1 X-9.71 Y2.53 E.0706
G1 X-9.883 Y1.746 E.03861
G1 X-10.105 Y1.597 E.01286
G1 X-10.166 Y1.608 E.00298
G1 X-10.294 Y1.694 E.00742
G1 X-10.323 Y1.824 E.00641
G1 X-10.273 Y2.189 E.01772
G1 X-9.864 Y3.958 E.08733
;TYPE:Overhang perimeter
;WIDTH:0.4
;HEIGHT:0.4
G1 X-9.781 Y4.096 E.00841
;TYPE:External perimeter
;WIDTH:0.45
;HEIGHT:0.3
G1 X-8.733 Y5.117 E.07037
G1 X-9.176 Y5.124 E.02131
;TYPE:Overhang perimeter
;WIDTH:0.4
;HEIGHT:0.4
G1 X-10.364 Y5.14 E.06207
G1 X-10.594 Y4.747 E.02379
G1 X-11.558 Y2.705 E.11797
G1 X-11.924 Y1.425 E.06955
G1 X-12.221 Y.024 E.07482
G1 X-11.893 Y-1.21 E.06671
G1 X-11.612 Y-2.644 E.07634
G1 X-10.595 Y-5.081 E.13796
G1 X-9.263 Y-5.073 E.06959
;TYPE:External perimeter
;WIDTH:0.45
;HEIGHT:0.3
G1 X-8.687 Y-5.07 E.0277
G1 X-9.742 Y-4.016 E.07173
G1 X-9.926 Y-3.787 E.01413
G1 X-10.263 Y-2.116 E.08199
G1 X-10.174 Y-1.949 E.0091
G1 X-10.047 Y-1.91 E.00639
G1 X-9.829 Y-2.027 E.0119
G1 X-9.711 Y-2.526 E.02466
;WIDTH:0.489076
G1 X-9.616 Y-2.693 E.01018
;WIDTH:0.528152
G1 X-9.521 Y-2.859 E.01106
;WIDTH:0.567228
G1 X-9.426 Y-3.025 E.012
G1 X-9.08 Y-3.802 E.05335
G1 X-8.943 Y-3.978 E.01399
G1 X-8.963 Y-2.829 E.07207
G1 X-8.981 Y-2.653 E.0111
;WIDTH:0.528152
G1 X-9 Y-2.477 E.01024
;WIDTH:0.489076
G1 X-9.019 Y-2.302 E.00932
;WIDTH:0.45
G1 X-9.407 Y-.482 E.0895
G1 X-9.488 Y-.031 E.02204
G1 X-9.433 Y.366 F7800
G1 E-2 F2400
G1 X-10.773 Y-1.338 F7800
G1 E2 F2400
;TYPE:Bridge infill
;WIDTH:0.49
;HEIGHT:0.4
G1 F3600
G1 X-11.076 Y.156 E.11951
G1 X-10.929 Y.847 E.05539
G1 X-10.693 Y.638 E.02471
G1 X-10.617 Y.614 E.00625
G1 X-10.28 Y-1.051 E.13318
G1 E-2 F2400
G1 X9.708 Y-1.117 F7800
G1 E2 F2400
;TYPE:Overhang perimeter
;WIDTH:0.4
G1 F900
G1 X9.53 Y-2.684 E.08239
G1 X9.575 Y-2.287 F7800
G1 X9.707 Y-1.114
G1 F900
G1 X9.708 Y-1.117 E.00017
G1 X9.904 Y-.75 E.02174
G1 X10.022 Y.071 E.04333
G1 X9.878 Y.768 E.03718
G1 X9.609 Y1.776 E.05451
G1 X9.652 Y.038 E.09083
G1 X9.599 Y-.716 E.03949
G1 X9.691 Y-1.056 E.0184
G1 X9.922 Y-.729 F7800
M106 S219.3
;LAYER_CHANGE
;Z:1.25
;HEIGHT:0.3
G1 E-2 F2400
G1 Z1.25 F7800
G1 Z1.25
G1 X-9.473 Y.029
G1 E2 F2400
;TYPE:External perimeter
;WIDTH:0.399082
G1 F900
G1 X-9.381 Y.494 E.01979
G1 X-9.391 Y2.006 E.06312
G1 X-9.804 Y.139 E.07982
;WIDTH:0.396305
G1 X-9.803 Y-.075 E.00886
;WIDTH:0.394278
G1 X-9.321 Y-2.36 E.09609
;WIDTH:0.394209
G1 X-9.361 Y-.572 E.07357
G1 X-9.475 Y-.029 E.02282
G1 X-9.406 Y.365 F7800
G1 E-2 F2400
G1 X-11.877 Y.457 F7800
G1 E2 F2400
;TYPE:Perimeter
;WIDTH:0.45
G1 F900
G1 X-11.66 Y1.443 E.04856
;WIDTH:0.496198
G1 X-11.661 Y1.546 E.00555
;WIDTH:0.542397
G1 X-11.662 Y1.648 E.00608
;WIDTH:0.588596
G1 X-11.663 Y1.751 E.00673
;WIDTH:0.634795
G1 X-11.664 Y1.853 E.00726
G1 X-11.58 Y2.213 E.0263
;WIDTH:0.623406
G1 X-11.49 Y2.534 E.02324
;WIDTH:0.585769
G1 X-11.4 Y2.856 E.02174
;WIDTH:0.548132
G1 X-11.232 Y3.319 E.02972
;WIDTH:0.576299
G1 X-10.662 Y4.279 E.07129
G1 X-11.282 Y4.285 E.03959
;TYPE:Overhang perimeter
;WIDTH:0.4
;HEIGHT:0.4
M106 S255
G1 X-11.297 Y4.285 E.00078
G1 X-11.675 Y3.453 E.04774
M106 S219.3
;TYPE:Perimeter
;WIDTH:0.548132
;HEIGHT:0.3
G1 X-11.854 Y3.011 E.02877
;WIDTH:0.588162
G1 X-11.953 Y2.767 E.0172
;WIDTH:0.628193
G1 X-12.052 Y2.523 E.01852
;TYPE:Overhang perimeter
;WIDTH:0.4
;HEIGHT:0.4
M106 S255
G1 X-12.217 Y1.993 E.029
G1 X-12.416 Y1.634 E.02144
G1 X-12.605 Y.971 E.03602
G1 X-12.827 Y-.092 E.05673
G1 X-12.564 Y-1.363 E.06781
G1 X-12.287 Y-2.443 E.05825
G1 X-11.837 Y-3.341 E.05248
G1 X-11.463 Y-4.219 E.04986
G1 X-11.42 Y-4.219 E.00225
M106 S219.3
;TYPE:Perimeter
;WIDTH:0.613501
;HEIGHT:0.3
G1 X-10.666 Y-4.206 E.05165
G1 X-10.92 Y-3.952 E.0246
G1 X-11.13 Y-3.635 E.02604
;WIDTH:0.601568
G1 X-11.419 Y-2.926 E.0513
;WIDTH:0.598444
G1 X-11.444 Y-2.683 E.01627
;WIDTH:0.548962
G1 X-11.47 Y-2.441 E.01471
;WIDTH:0.499481
G1 X-11.496 Y-2.199 E.01321
;WIDTH:0.45
G1 X-11.925 Y-.158 E.10031
G1 X-11.923 Y.246 E.01943
G1 X-11.89 Y.398 E.00748
G1 X-11.547 Y.042 F7800
G1 F900
G1 X-11.547 Y.164 E.00587
G1 X-10.975 Y2.763 E.12799
G1 X-10.869 Y3.098 E.0169
G1 X-10.245 Y4.088 E.05628
G1 X-9.601 Y4.716 E.04326
G1 X-11.071 Y4.732 E.07071
;TYPE:Overhang perimeter
;WIDTH:0.4
;HEIGHT:0.4
M106 S255
G1 X-11.592 Y4.737 E.02722
G1 X-12.248 Y3.197 E.08745
G1 X-12.559 Y2.538 E.03807
G1 X-12.979 Y1.065 E.08002
G1 X-13.188 Y.104 E.05138
G1 X-13.209 Y-.15 E.01332
G1 X-12.94 Y-1.449 E.06931
G1 X-12.665 Y-2.537 E.05863
G1 X-11.774 Y-4.692 E.12183
G1 X-11.227 Y-4.683 E.02858
M106 S219.3
;TYPE:Perimeter
;WIDTH:0.45
;HEIGHT:0.3
G1 X-9.546 Y-4.667 E.08085
G1 X-10.589 Y-3.622 E.07101
G1 X-10.709 Y-3.448 E.01017
G1 X-10.969 Y-2.831 E.0322
G1 X-11.547 Y-.078 E.1353
G1 X-11.547 Y-.018 E.00289
G1 X-11.17 Y.041 F7800
;TYPE:External perimeter
G1 F900
G1 X-11.17 Y.082 E.00197
G1 X-10.54 Y2.898 E.13879
G1 X-9.976 Y3.812 E.05166
G1 X-8.663 Y5.092 E.08819
G1 X-10.87 Y5.115 E.10615
;TYPE:Overhang perimeter
;WIDTH:0.4
;HEIGHT:0.4
M106 S255
G1 X-11.846 Y5.126 E.05099
G1 X-12.596 Y3.362 E.10014
G1 X-12.921 Y2.675 E.03971
G1 X-13.353 Y1.159 E.08236
G1 X-13.609 Y-.015 E.06278
G1 X-13.591 Y-.207 E.01008
G1 X-13.316 Y-1.535 E.07085
G1 X-13.032 Y-2.659 E.06057
G1 X-12.03 Y-5.082 E.13699
G1 X-11.068 Y-5.066 E.05027
M106 S219.3
;TYPE:External perimeter
;WIDTH:0.45
;HEIGHT:0.3
G1 X-8.621 Y-5.046 E.1177
G1 X-10.356 Y-3.291 E.11869
G1 X-10.591 Y-2.754 E.02819
G1 X-11.166 Y-.019 E.13442
G1 X-11.101 Y.376 F7800
G1 E-2 F2400
G1 X-11.887 Y-2.825 F7800
G1 E2 F2400
;TYPE:Bridge infill
;WIDTH:0.49
;HEIGHT:0.4
M106 S255
G1 F3600
G1 X-12.479 Y.038 E.22921
G1 X-12.293 Y.893 E.0686
G1 X-12.184 Y1.275 E.03114
G1 X-12.007 Y.419 E.06853
M106 S219.3
G1 E-2 F2400
G1 X10.216 Y2.583 F7800
G1 E2 F2400
;TYPE:Overhang perimeter
;WIDTH:0.4
M106 S255
G1 F900
G1 X10.479 Y1.583 E.05402
M106 S219.3
G1 E-2 F2400
G1 X9.932 Y-2.842 F7800
G1 E2 F2400
M106 S255
G1 F900
G1 X9.92 Y-2.878 E.00198
G1 X9.588 Y-3.431 E.0337
G1 X9.531 Y-4.419 E.0517
G1 X10.315 Y-3.115 E.07949
G1 X10.546 Y-2.643 E.02745
G1 X11.069 Y-.126 E.13431
G1 X11.078 Y.027 E.00801
G1 X10.83 Y1.247 E.06504
G1 X10.79 Y1.798 E.02886
G1 X10.556 Y2.674 E.04737
G1 X10.274 Y3.088 E.02617
G1 X9.975 Y3.62 E.03188
G1 X9.587 Y4.237 E.03808
G1 X9.623 Y3.248 E.0517
G1 X9.792 Y2.965 E.01722
G1 X9.877 Y2.492 E.02511
G1 X10.108 Y1.627 E.04678
G1 X10.316 Y1.126 E.02834
G1 X10.547 Y-.018 E.06097
G1 X10.034 Y-2.537 E.13431
G1 X9.951 Y-2.785 E.01366
M106 S219.3
G1 X9.761 Y-3.137 F7800
G1 E-10 F2400
; Filament-specific end gcode 
;END gcode for filament
M106 S255
T1
; Filament gcode
G1 X-8.968 Y-.035 F7800
G1 Z1.25
G1 E10 F2400
;TYPE:External perimeter
;WIDTH:0.597097
;HEIGHT:0.3
G1 F600
G1 X-8.906 Y.47 E.03381
;WIDTH:0.550115
G1 X-8.921 Y2.654 E.13232
;WIDTH:0.55243
G1 X-8.922 Y2.691 E.00225
G1 X-8.985 Y2.74 E.00486
;WIDTH:0.518286
G1 X-9.048 Y2.789 E.00452
;WIDTH:0.484143
G1 X-9.112 Y2.838 E.00422
;WIDTH:0.45
G1 X-9.363 Y2.904 E.01248
;WIDTH:0.482189
G1 X-9.552 Y2.82 E.01078
G1 X-9.733 Y2.502 E.01907
G1 X-10.265 Y.085 E.12897
;WIDTH:0.486585
G1 X-10.273 Y.039 E.00246
G1 X-10.266 Y-.003 E.00224
;WIDTH:0.482276
G1 X-9.746 Y-2.475 E.13167
;WIDTH:0.481985
G1 X-9.481 Y-3.036 E.03232
;WIDTH:0.442991
G1 X-9.437 Y-3.088 E.00322
;WIDTH:0.45
G1 X-9.268 Y-3.148 E.00863
G1 X-8.997 Y-3.085 E.01338
;WIDTH:0.484335
G1 X-8.943 Y-3.025 E.00423
;WIDTH:0.51867
G1 X-8.888 Y-2.965 E.00461
;WIDTH:0.553006
G1 X-8.834 Y-2.905 E.00492
;WIDTH:0.55515
G1 X-8.89 Y-.539 E.14487
;WIDTH:0.597097
G1 X-8.959 Y-.094 E.02992
G1 X-8.924 Y.304 F7800
G1 E-2 F2400
G1 X-9.325 Y3.283 F7800
G1 E2 F2400
;TYPE:Perimeter
;WIDTH:0.44408
G1 F600
G1 X-9.009 Y3.207 E.01539
G1 X-8.765 Y2.936 E.01727
G1 X-8.749 Y3.845 E.04306
G1 X-9.283 Y3.325 E.0353
G1 E-2 F2400
G1 X-9.081 Y-3.461 F7800
G1 E2 F2400
;WIDTH:0.368612
G1 F600
G1 X-8.638 Y-3.905 E.0238
G1 X-8.638 Y-3.063 E.03195
G1 X-8.854 Y-3.399 E.01516
G1 X-9.024 Y-3.445 E.00668
G1 E-2 F2400
G1 X-10.686 Y.04 F7800
G1 E2 F2400
;TYPE:External perimeter
;WIDTH:0.486585
G1 F600
G1 X-10.675 Y-.089 E.00682
;WIDTH:0.482276
G1 X-10.155 Y-2.561 E.13167
G1 X-9.966 Y-3.02 E.02587
G1 X-9.788 Y-3.247 E.01504
;WIDTH:0.45
G1 X-8.297 Y-4.734 E.10128
G1 X-8.292 Y-4.457 E.01332
G1 X-8.293 Y-3.537 E.04425
;WIDTH:0.48505
G1 X-8.311 Y-3.259 E.01462
;WIDTH:0.5201
G1 X-8.329 Y-2.981 E.01583
;WIDTH:0.55515
G1 X-8.403 Y-.526 E.15034
;WIDTH:0.597097
G1 X-8.441 Y-.002 E.03491
G1 X-8.421 Y.473 E.03159
;WIDTH:0.550115
G1 X-8.436 Y2.658 E.13238
;WIDTH:0.55243
G1 X-8.416 Y2.942 E.01733
;WIDTH:0.518286
G1 X-8.395 Y3.16 E.0124
;WIDTH:0.484143
G1 X-8.375 Y3.377 E.01141
;WIDTH:0.45
G1 X-8.351 Y4.768 E.06691
G1 X-9.663 Y3.472 E.0887
;WIDTH:0.482191
G1 X-10.064 Y2.783 E.04154
G1 X-10.141 Y2.592 E.01073
G1 X-10.672 Y.175 E.12896
;WIDTH:0.486585
G1 X-10.687 Y.099 E.00408
G1 X-10.628 Y-.296 F7800
G1 E-2 F2400
G1 X9.745 Y-1.178 F7800
G1 E2 F2400
;WIDTH:0.51614
G1 F600
G1 X9.98 Y-.011 E.06708
G1 X9.98 Y.079 E.00507
G1 X9.84 Y.759 E.03912
G1 X9.52 Y1.956 E.06981
G1 X9.533 Y.068 E.10638
G1 X9.506 Y-2.365 E.1371
G1 X9.734 Y-1.236 E.0649
G1 X9.813 Y-.844 F7800
;LAYER_CHANGE
;Z:1.55
;HEIGHT:0.3
G1 E-2 F2400
G1 Z1.55 F7800
G1 Z1.55
G1 X9.443 Y3.464
G1 E2 F2400
;WIDTH:0.543209
G1 F764
G1 X9.441 Y3.423 E.00245
;WIDTH:0.544993
G1 X9.437 Y2.798 E.03747
;WIDTH:0.548615
G1 X9.443 Y2.181 E.03727
G1 X9.441 Y2.581 F7800
G1 E-2 F2400
G1 X9.422 Y-2.711 F7800
G1 E2 F2400
;WIDTH:0.544471
G1 F764
G1 X9.42 Y-2.752 E.00246
;WIDTH:0.544919
G1 X9.413 Y-3.499 E.04477
G1 X9.549 Y-3.654 F7800
;WIDTH:0.519176
G1 F764
