; generated by PrusaSlicer 2.9.2 on 2025-05-08 at 04:53:56 UTC


;
;

;
;

;
;

;
;
; 

; external perimeters extrusion width = 0.45mm
; perimeters extrusion width = 0.45mm
; infill extrusion width = 0.45mm
; solid infill extrusion width = 0.45mm
; top infill extrusion width = 0.42mm
; first layer extrusion width = 0.50mm

; external perimeters extrusion width = 0.45mm
; perimeters extrusion width = 0.45mm
; infill extrusion width = 0.45mm
; solid infill extrusion width = 0.45mm
; top infill extrusion width = 0.42mm
; first layer extrusion width = 0.50mm

M73 P0 R67
M73 Q0 S71
M201 X7000 Y7000 Z200 E2500 ; sets maximum accelerations, mm/sec^2
M203 X400 Y400 Z12 E100 ; sets maximum feedrates, mm / sec
M204 P4000 R1200 T5000 ; sets acceleration (P, T) and retract acceleration (R), mm/sec^2
M205 X8.00 Y8.00 Z2.00 E10.00 ; sets the jerk limits, mm/sec
M205 S0 T0 ; sets the minimum extruding and travel feed rate, mm/sec

M486 S0
M486 Api 3mm.stl
M486 S-1

;TYPE:Custom
M17 ; enable steppers
M862.3 P "XL" ; printer model check
M862.5 P2 ; g-code level check
M862.6 P"Input shaper" ; FW feature check
M115 U6.2.4+8909
G90 ; use absolute coordinates
M83 ; extruder relative mode
; set print area
M555 X146.5 Y322.859 W66.3991 H29.212
; inform about nozzle diameter
M862.1 T0 P0.4 A0 F0
M862.1 T1 P0.4 A0 F0




; turn off unused heaters


M104 T2 S0
M104 T3 S0
M104 T4 S0

M217 Z2 ; set toolchange z hop to 2mm, or zhop variable from slicer if higher
; set bed and extruder temp for MBL
M140 S60 ; set bed temp
G0 Z5 ; add Z clearance
M109 T0 S170 ; wait for temp

; Home XY
G28 XY
; try picking tools used in print
G1 F24000

T1 S1 L0 D0



; select tool that will be used to home & MBL
T0 S1 L0 D0
; home Z with MBL tool
M84 E ; turn off E motor
G28 Z
G0 Z5 ; add Z clearance

M104 T0 S70 ; set idle temp
M190 S60 ; wait for bed temp

G29 G ; absorb heat

M109 T0 S170 ; wait for temp

; move to the nozzle cleanup area
G1 X178.5 Y315.859 Z5 F24000
M302 S160 ; lower cold extrusion limit to 160C
G1 E-2 F2400 ; retraction for nozzle cleanup
; nozzle cleanup
M84 E ; turn off E motor
G29 P9 X146.5 Y315.859 W32 H7
G0 Z5 F480 ; move away in Z
M107 ; turn off the fan
; MBL
M84 E ; turn off E motor
G29 P1 ; invalidate mbl & probe print area
G29 P1 X30 Y0 W130 H20 C ; probe near purge place
G29 P3.2 ; interpolate mbl probes
G29 P3.13 ; extrapolate mbl outside probe area
G29 A ; activate mbl
G1 Z10 F720 ; move away in Z
G1 F24000
P0 S1 L1 D0; park the tool
; set extruder temp
M104 T0 S230
M104 T1 S230





;
; purge second tool
;
G1 F24000
P0 S1 L2 D0; park the tool
M109 T1 S230
T1 S1 L0 D0; pick the tool
G92 E0 ; reset extruder position

M104.1 T0 P13 Q15 S225
G0 X150 Y-7 Z10 F24000 ; move close to the sheet's edge
M104.1 T1 P75 Q78 S225
G0 E30 X140 Z0.2 F170 ; purge while moving towards the sheet
M73 P0 R66
G0 X110 E9 F800 ; continue purging and wipe the nozzle
G0 X107 Z0.05 F8000 ; wipe, move close to the bed
G0 X104 Z0.2 F8000 ; wipe, move quickly away from the bed
G1 E-20 F2400 ; retract

G92 E0 ; reset extruder position

M104 S70 T1




;
; purge initial tool
;
G1 F24000
P0 S1 L2 D0; park the tool
M109 T0 S230
T0 S1 L0 D0; pick the tool
G92 E0 ; reset extruder position

G0 X30 Y-7 Z10 F24000 ; move close to the sheet's edge
G0 E30 X40 Z0.2 F170 ; purge while moving towards the sheet
M104.1 T1 P62 Q65 S225
G0 X70 E9 F800 ; continue purging and wipe the nozzle
G0 X73 Z0.05 F8000 ; wipe, move close to the bed
G0 X76 Z0.2 F8000 ; wipe, move quickly away from the bed
G1 E-0.8 F2400 ; retract
M73 Q0 S70

G92 E0 ; reset extruder position
G21 ; set units to millimeters
G90 ; use absolute coordinates
M83 ; use relative distances for extrusion
; Change Tool-1 -> Tool0 (layer -1)
G1 F21000
T0 S1 L0 D0
M900 K0.05 ; Filament gcode


M572 S0.036 ; Filament gcode


M142 S36 ; set heatbreak target temp
M109 S230 T0 ; set temperature and wait for it to be reached
M107
;LAYER_CHANGE
;Z:0.2
;HEIGHT:0.2
M486 S0
M486 S-1
G1 Z.8 F720
G1 X150.2 Y340.4 F24000
G1 Z.2 F720
G1 E.8 F1500
;HEIGHT:0.2
;TYPE:Wipe tower
;WIDTH:0.5
G1 X209.200 Y340.400 E2.2424 F2400
M104.1 T0 P72 Q74 S225
G1 Y345.150 E0.1805
G1 X150.200 E2.2424
G1 Y340.400 E0.1805
G1 X209.200
G1 Y345.150
G1 X208.200
;--------------------
; CP EMPTY GRID START
; layer #1
G1 Y344.650 E0.0190
G1 X150.700 E2.1854
G1 Y344.114 E0.0204
G1 X208.700 E2.2044
G1 Y343.579 E0.0204
G1 X150.700 E2.2044
G1 Y343.043 E0.0204
M73 Q1 S70
M104.1 T1 P49 Q50 S225
G1 X208.700 E2.2044
G1 Y342.507 E0.0204
G1 X150.700 E2.2044
G1 Y341.971 E0.0204
M73 P1 R66
M104.1 T0 P61 Q63 S225
G1 X208.700 E2.2044
G1 Y341.436 E0.0204
G1 X150.700 E2.2044
G1 Y340.900 E0.0204
G1 X208.700 E2.2044
G1 Y340.400 E0.0190
; CP EMPTY GRID END
;------------------






G1 X209.700 Y339.900
G1 Y345.650 E0.2185
G1 X185.026 E0.9378
G1 X184.864 Y345.932 E0.0124
G1 X184.686 Y346.205 E0.0124
G1 X184.495 Y346.468 E0.0124
G1 X184.289 Y346.721 E0.0124
G1 X184.070 Y346.962 E0.0124
G1 X183.839 Y347.191 E0.0124
G1 X183.596 Y347.407 E0.0124
G1 X183.341 Y347.610 E0.0124
G1 X183.076 Y347.798 E0.0124
G1 X182.801 Y347.973 E0.0124
G1 X182.517 Y348.132 E0.0124
G1 X182.225 Y348.275 E0.0124
G1 X181.925 Y348.403 E0.0124
G1 X181.620 Y348.515 E0.0124
G1 X181.308 Y348.610 E0.0124
G1 X180.992 Y348.688 E0.0124
G1 X180.672 Y348.749 E0.0124
G1 X180.350 Y348.792 E0.0124
G1 X180.025 Y348.819 E0.0124
G1 X179.700 Y348.827 E0.0124
G1 X179.375 Y348.819 E0.0124
G1 X179.050 Y348.792 E0.0124
G1 X178.728 Y348.749 E0.0124
G1 X178.408 Y348.688 E0.0124
G1 X178.092 Y348.610 E0.0124
G1 X177.780 Y348.515 E0.0124
G1 X177.475 Y348.403 E0.0124
G1 X177.175 Y348.275 E0.0124
G1 X176.883 Y348.132 E0.0124
G1 X176.599 Y347.973 E0.0124
G1 X176.324 Y347.798 E0.0124
G1 X176.059 Y347.610 E0.0124
G1 X175.804 Y347.407 E0.0124
G1 X175.561 Y347.191 E0.0124
G1 X175.330 Y346.962 E0.0124
G1 X175.111 Y346.721 E0.0124
G1 X174.905 Y346.468 E0.0124
G1 X174.714 Y346.205 E0.0124
G1 X174.536 Y345.932 E0.0124
G1 X174.374 Y345.650 E0.0124
G1 X184.642 Y345.811
G1 X184.275 Y345.444 E0.0197
G1 X183.629
G1 X184.381 Y346.197 E0.0405
G1 X184.097 Y346.559
G1 X182.982 Y345.444 E0.0599
G1 X182.336
G1 X183.784 Y346.892 E0.0778
G1 X183.447 Y347.202
G1 X181.690 Y345.444 E0.0945
G1 X181.043
G1 X183.083 Y347.484 E0.1097
G1 X182.695 Y347.742
G1 X180.397 Y345.444 E0.1235
G1 X179.750
G1 X182.276 Y347.970 E0.1358
G1 X181.830 Y348.170
G1 X179.104 Y345.444 E0.1465
G1 X178.458
G1 X181.348 Y348.335 E0.1554
G1 X180.830 Y348.463
G1 X177.811 Y345.444 E0.1622
G1 X177.165
G1 X180.267 Y348.547 E0.1668
G1 X179.648 Y348.574
G1 X176.518 Y345.444 E0.1682
G1 X175.872
G1 X178.953 Y348.525 E0.1656
G1 X178.144 Y348.363
G1 X175.226 Y345.444 E0.1569
G1 X174.579
G1 X177.086 Y347.952 E0.1348
G1 X174.374 Y345.650
G1 X149.700 E0.9378
G1 Y339.900 E0.2185
G1 X174.374 E0.9378
G1 X174.536 Y339.618 E0.0124
G1 X174.714 Y339.345 E0.0124
G1 X174.905 Y339.082 E0.0124
G1 X175.111 Y338.829 E0.0124
G1 X175.330 Y338.588 E0.0124
G1 X175.561 Y338.359 E0.0124
G1 X175.804 Y338.143 E0.0124
G1 X176.059 Y337.940 E0.0124
G1 X176.324 Y337.752 E0.0124
G1 X176.599 Y337.577 E0.0124
G1 X176.883 Y337.418 E0.0124
G1 X177.175 Y337.275 E0.0124
G1 X177.475 Y337.147 E0.0124
G1 X177.780 Y337.035 E0.0124
G1 X178.092 Y336.940 E0.0124
G1 X178.408 Y336.862 E0.0124
G1 X178.728 Y336.801 E0.0124
G1 X179.050 Y336.758 E0.0124
G1 X179.375 Y336.731 E0.0124
G1 X179.700 Y336.723 E0.0124
G1 X180.025 Y336.731 E0.0124
G1 X180.350 Y336.758 E0.0124
G1 X180.672 Y336.801 E0.0124
G1 X180.992 Y336.862 E0.0124
G1 X181.308 Y336.940 E0.0124
G1 X181.620 Y337.035 E0.0124
G1 X181.925 Y337.147 E0.0124
G1 X182.225 Y337.275 E0.0124
G1 X182.517 Y337.418 E0.0124
G1 X182.801 Y337.577 E0.0124
G1 X183.076 Y337.752 E0.0124
G1 X183.341 Y337.940 E0.0124
G1 X183.596 Y338.143 E0.0124
G1 X183.839 Y338.359 E0.0124
G1 X184.070 Y338.588 E0.0124
G1 X184.289 Y338.829 E0.0124
G1 X184.495 Y339.082 E0.0124
G1 X184.686 Y339.345 E0.0124
G1 X184.864 Y339.618 E0.0124
G1 X185.026 Y339.900 E0.0124
G1 X174.758 Y339.739
G1 X175.125 Y340.106 E0.0197
G1 X175.771
G1 X175.019 Y339.353 E0.0405
G1 X175.303 Y338.991
G1 X176.418 Y340.106 E0.0599
G1 X177.064
G1 X175.616 Y338.658 E0.0778
G1 X175.953 Y338.348
G1 X177.710 Y340.106 E0.0945
G1 X178.357
G1 X176.317 Y338.066 E0.1097
G1 X176.705 Y337.808
G1 X179.003 Y340.106 E0.1235
G1 X179.650
M104.1 T1 P36 Q37 S225
G1 X177.124 Y337.580 E0.1358
G1 X177.570 Y337.380
G1 X180.296 Y340.106 E0.1465
G1 X180.942
G1 X178.052 Y337.215 E0.1554
G1 X178.570 Y337.087
G1 X181.589 Y340.106 E0.1622
G1 X182.235
G1 X179.133 Y337.003 E0.1668
G1 X179.752 Y336.976
G1 X182.882 Y340.106 E0.1682
G1 X183.528
G1 X180.447 Y337.025 E0.1656
G1 X181.256 Y337.187
G1 X184.174 Y340.106 E0.1569
G1 X184.821
G1 X182.314 Y337.598 E0.1348
G1 X185.026 Y339.900
G1 X209.700 E0.9378
G1 X210.157 Y339.443
G1 Y346.107 E0.2533
G1 X185.290 E0.9451
G1 X185.254 Y346.171 E0.0028
G1 X185.063 Y346.464 E0.0133
G1 X184.857 Y346.747 E0.0133
G1 X184.636 Y347.019 E0.0133
G1 X184.401 Y347.278 E0.0133
G1 X184.152 Y347.524 E0.0133
G1 X183.890 Y347.757 E0.0133
G1 X183.616 Y347.975 E0.0133
G1 X183.331 Y348.178 E0.0133
G1 X183.035 Y348.365 E0.0133
G1 X182.730 Y348.536 E0.0133
G1 X182.416 Y348.691 E0.0133
G1 X182.094 Y348.828 E0.0133
G1 X181.765 Y348.948 E0.0133
G1 X181.430 Y349.050 E0.0133
G1 X181.090 Y349.134 E0.0133
G1 X180.746 Y349.200 E0.0133
G1 X180.399 Y349.247 E0.0133
G1 X180.050 Y349.275 E0.0133
G1 X179.700 Y349.285 E0.0133
G1 X179.350 Y349.275 E0.0133
G1 X179.001 Y349.247 E0.0133
G1 X178.654 Y349.200 E0.0133
G1 X178.310 Y349.134 E0.0133
G1 X177.970 Y349.050 E0.0133
G1 X177.635 Y348.948 E0.0133
G1 X177.306 Y348.828 E0.0133
G1 X176.984 Y348.691 E0.0133
G1 X176.670 Y348.536 E0.0133
G1 X176.365 Y348.365 E0.0133
G1 X176.069 Y348.178 E0.0133
G1 X175.784 Y347.975 E0.0133
G1 X175.510 Y347.757 E0.0133
G1 X175.248 Y347.524 E0.0133
G1 X174.999 Y347.278 E0.0133
G1 X174.764 Y347.019 E0.0133
G1 X174.543 Y346.747 E0.0133
G1 X174.337 Y346.464 E0.0133
G1 X174.146 Y346.171 E0.0133
G1 X174.110 Y346.107 E0.0028
M104.1 T0 P48 Q50 S225
G1 X149.243 E0.9451
G1 Y339.443 E0.2533
G1 X174.110 E0.9451
G1 X174.146 Y339.379 E0.0028
G1 X174.337 Y339.086 E0.0133
G1 X174.543 Y338.803 E0.0133
G1 X174.764 Y338.531 E0.0133
G1 X174.999 Y338.272 E0.0133
G1 X175.248 Y338.026 E0.0133
G1 X175.510 Y337.793 E0.0133
G1 X175.784 Y337.575 E0.0133
G1 X176.069 Y337.372 E0.0133
G1 X176.365 Y337.185 E0.0133
G1 X176.670 Y337.014 E0.0133
G1 X176.984 Y336.859 E0.0133
G1 X177.306 Y336.722 E0.0133
G1 X177.635 Y336.602 E0.0133
G1 X177.970 Y336.500 E0.0133
G1 X178.310 Y336.416 E0.0133
G1 X178.654 Y336.350 E0.0133
G1 X179.001 Y336.303 E0.0133
G1 X179.350 Y336.275 E0.0133
G1 X179.700 Y336.265 E0.0133
G1 X180.050 Y336.275 E0.0133
G1 X180.399 Y336.303 E0.0133
G1 X180.746 Y336.350 E0.0133
G1 X181.090 Y336.416 E0.0133
G1 X181.430 Y336.500 E0.0133
G1 X181.765 Y336.602 E0.0133
G1 X182.094 Y336.722 E0.0133
G1 X182.416 Y336.859 E0.0133
G1 X182.730 Y337.014 E0.0133
G1 X183.035 Y337.185 E0.0133
G1 X183.331 Y337.372 E0.0133
G1 X183.616 Y337.575 E0.0133
G1 X183.890 Y337.793 E0.0133
G1 X184.152 Y338.026 E0.0133
G1 X184.401 Y338.272 E0.0133
G1 X184.636 Y338.531 E0.0133
G1 X184.857 Y338.803 E0.0133
G1 X185.063 Y339.086 E0.0133
G1 X185.254 Y339.379 E0.0133
G1 X185.290 Y339.443 E0.0028
G1 X210.157 E0.9451
G1 X210.614 Y338.986
G1 Y346.564 E0.2880
G1 X185.543 E0.9529
G1 X185.440 Y346.724 E0.0072
G1 X185.219 Y347.026 E0.0142
G1 X184.983 Y347.317 E0.0142
G1 X184.731 Y347.594 E0.0142
G1 X184.464 Y347.858 E0.0142
G1 X184.184 Y348.107 E0.0142
G1 X183.891 Y348.340 E0.0142
G1 X183.586 Y348.557 E0.0142
G1 X183.269 Y348.758 E0.0142
G1 X182.942 Y348.941 E0.0142
G1 X182.606 Y349.107 E0.0142
G1 X182.262 Y349.254 E0.0142
G1 X181.910 Y349.382 E0.0142
G1 X181.551 Y349.491 E0.0142
G1 X181.187 Y349.581 E0.0142
G1 X180.819 Y349.651 E0.0142
G1 X180.448 Y349.701 E0.0142
G1 X180.075 Y349.732 E0.0142
G1 X179.700 Y349.742 E0.0142
G1 X179.325 Y349.732 E0.0142
G1 X178.952 Y349.701 E0.0142
G1 X178.581 Y349.651 E0.0142
G1 X178.213 Y349.581 E0.0142
G1 X177.849 Y349.491 E0.0142
G1 X177.490 Y349.382 E0.0142
G1 X177.138 Y349.254 E0.0142
G1 X176.794 Y349.107 E0.0142
G1 X176.458 Y348.941 E0.0142
G1 X176.131 Y348.758 E0.0142
G1 X175.814 Y348.557 E0.0142
G1 X175.509 Y348.340 E0.0142
G1 X175.216 Y348.107 E0.0142
G1 X174.936 Y347.858 E0.0142
G1 X174.669 Y347.594 E0.0142
G1 X174.417 Y347.317 E0.0142
G1 X174.181 Y347.026 E0.0142
G1 X173.960 Y346.724 E0.0142
G1 X173.857 Y346.564 E0.0072
G1 X148.786 E0.9529
G1 Y338.986 E0.2880
G1 X173.857 E0.9529
G1 X173.960 Y338.826 E0.0072
G1 X174.181 Y338.524 E0.0142
G1 X174.417 Y338.233 E0.0142
G1 X174.669 Y337.956 E0.0142
G1 X174.936 Y337.692 E0.0142
G1 X175.216 Y337.443 E0.0142
G1 X175.509 Y337.210 E0.0142
G1 X175.814 Y336.993 E0.0142
G1 X176.131 Y336.792 E0.0142
G1 X176.458 Y336.609 E0.0142
G1 X176.794 Y336.443 E0.0142
G1 X177.138 Y336.296 E0.0142
G1 X177.490 Y336.168 E0.0142
G1 X177.849 Y336.059 E0.0142
G1 X178.213 Y335.969 E0.0142
G1 X178.581 Y335.899 E0.0142
G1 X178.952 Y335.849 E0.0142
G1 X179.325 Y335.818 E0.0142
G1 X179.700 Y335.808 E0.0142
G1 X180.075 Y335.818 E0.0142
G1 X180.448 Y335.849 E0.0142
G1 X180.819 Y335.899 E0.0142
G1 X181.187 Y335.969 E0.0142
G1 X181.551 Y336.059 E0.0142
G1 X181.910 Y336.168 E0.0142
G1 X182.262 Y336.296 E0.0142
G1 X182.606 Y336.443 E0.0142
G1 X182.942 Y336.609 E0.0142
G1 X183.269 Y336.792 E0.0142
G1 X183.586 Y336.993 E0.0142
G1 X183.891 Y337.210 E0.0142
G1 X184.184 Y337.443 E0.0142
G1 X184.464 Y337.692 E0.0142
G1 X184.731 Y337.956 E0.0142
G1 X184.983 Y338.233 E0.0142
G1 X185.219 Y338.524 E0.0142
G1 X185.440 Y338.826 E0.0142
G1 X185.543 Y338.986 E0.0072
G1 X210.614 E0.9529
G1 X211.071 Y338.529
G1 Y347.021 E0.3228
G1 X185.788 E0.9609
G1 X185.581 Y347.305 E0.0134
G1 X185.329 Y347.615 E0.0152
G1 X185.061 Y347.911 E0.0152
G1 X184.777 Y348.192 E0.0152
G1 X184.479 Y348.457 E0.0152
G1 X184.166 Y348.705 E0.0152
G1 X183.841 Y348.937 E0.0152
G1 X183.504 Y349.151 E0.0152
G1 X183.155 Y349.346 E0.0152
G1 X182.797 Y349.522 E0.0152
G1 X182.430 Y349.679 E0.0152
G1 X182.055 Y349.816 E0.0152
G1 X181.673 Y349.932 E0.0152
G1 X181.285 Y350.028 E0.0152
G1 X180.893 Y350.103 E0.0152
G1 X180.497 Y350.156 E0.0152
G1 X180.099 Y350.188 E0.0152
G1 X179.700 Y350.199 E0.0152
G1 X179.301 Y350.188 E0.0152
G1 X178.903 Y350.156 E0.0152
G1 X178.507 Y350.103 E0.0152
G1 X178.115 Y350.028 E0.0152
G1 X177.727 Y349.932 E0.0152
G1 X177.345 Y349.816 E0.0152
G1 X176.970 Y349.679 E0.0152
G1 X176.603 Y349.522 E0.0152
G1 X176.245 Y349.346 E0.0152
G1 X175.896 Y349.151 E0.0152
G1 X175.559 Y348.937 E0.0152
G1 X175.234 Y348.705 E0.0152
G1 X174.921 Y348.457 E0.0152
G1 X174.623 Y348.192 E0.0152
G1 X174.339 Y347.911 E0.0152
G1 X174.071 Y347.615 E0.0152
G1 X173.819 Y347.305 E0.0152
G1 X173.612 Y347.021 E0.0134
G1 X148.329 E0.9609
G1 Y338.529 E0.3228
G1 X173.612 E0.9609
G1 X173.819 Y338.245 E0.0134
G1 X174.071 Y337.935 E0.0152
G1 X174.339 Y337.639 E0.0152
G1 X174.623 Y337.358 E0.0152
G1 X174.921 Y337.093 E0.0152
G1 X175.234 Y336.845 E0.0152
G1 X175.559 Y336.613 E0.0152
G1 X175.896 Y336.399 E0.0152
G1 X176.245 Y336.204 E0.0152
G1 X176.603 Y336.028 E0.0152
G1 X176.970 Y335.871 E0.0152
G1 X177.345 Y335.734 E0.0152
G1 X177.727 Y335.618 E0.0152
G1 X178.115 Y335.522 E0.0152
G1 X178.507 Y335.447 E0.0152
G1 X178.903 Y335.394 E0.0152
G1 X179.301 Y335.362 E0.0152
G1 X179.700 Y335.351 E0.0152
G1 X180.099 Y335.362 E0.0152
G1 X180.497 Y335.394 E0.0152
G1 X180.893 Y335.447 E0.0152
G1 X181.285 Y335.522 E0.0152
M104.1 T1 P24 Q25 S225
G1 X181.673 Y335.618 E0.0152
G1 X182.055 Y335.734 E0.0152
G1 X182.430 Y335.871 E0.0152
G1 X182.797 Y336.028 E0.0152
G1 X183.155 Y336.204 E0.0152
G1 X183.504 Y336.399 E0.0152
G1 X183.841 Y336.613 E0.0152
G1 X184.166 Y336.845 E0.0152
G1 X184.479 Y337.093 E0.0152
G1 X184.777 Y337.358 E0.0152
G1 X185.061 Y337.639 E0.0152
G1 X185.329 Y337.935 E0.0152
G1 X185.581 Y338.245 E0.0152
G1 X185.788 Y338.529 E0.0134
G1 X211.071 E0.9609
G1 X211.528 Y338.072
G1 Y347.478 E0.3575
G1 X186.021 E0.9694
G1 X185.944 Y347.584 E0.0050
G1 X185.676 Y347.913 E0.0161
G1 X185.391 Y348.227 E0.0161
G1 X185.090 Y348.525 E0.0161
G1 X184.773 Y348.807 E0.0161
